CONST robtarget p0:= [[0.0,0.0,-10.0], [-1, 0, 0, 0], [-1, 0, 1, 0], [ 9E+9,9E+9, 9E9, 9E9, 9E9, 9E9]];
CONST robtarget p1:= [[155.0,13.0,0.0], [-1, 0, 0, 0], [-1, 0, 1, 0], [ 9E+9,9E+9, 9E9, 9E9, 9E9, 9E9]];
CONST robtarget p2:= [[155.0,13.0,0.0], [-1, 0, 0, 0], [-1, 0, 1, 0], [ 9E+9,9E+9, 9E9, 9E9, 9E9, 9E9]];
CONST robtarget p3:= [[146.0,13.0,0.0], [-1, 0, 0, 0], [-1, 0, 1, 0], [ 9E+9,9E+9, 9E9, 9E9, 9E9, 9E9]];
CONST robtarget p4:= [[146.0,13.0,-10.0], [-1, 0, 0, 0], [-1, 0, 1, 0], [ 9E+9,9E+9, 9E9, 9E9, 9E9, 9E9]];
CONST robtarget p5:= [[144.0,14.0,0.0], [-1, 0, 0, 0], [-1, 0, 1, 0], [ 9E+9,9E+9, 9E9, 9E9, 9E9, 9E9]];
CONST robtarget p6:= [[144.0,14.0,0.0], [-1, 0, 0, 0], [-1, 0, 1, 0], [ 9E+9,9E+9, 9E9, 9E9, 9E9, 9E9]];
CONST robtarget p7:= [[157.0,14.0,0.0], [-1, 0, 0, 0], [-1, 0, 1, 0], [ 9E+9,9E+9, 9E9, 9E9, 9E9, 9E9]];
CONST robtarget p8:= [[157.0,14.0,-10.0], [-1, 0, 0, 0], [-1, 0, 1, 0], [ 9E+9,9E+9, 9E9, 9E9, 9E9, 9E9]];
CONST robtarget p9:= [[159.0,15.0,0.0], [-1, 0, 0, 0], [-1, 0, 1, 0], [ 9E+9,9E+9, 9E9, 9E9, 9E9, 9E9]];
CONST robtarget p10:= [[159.0,15.0,0.0], [-1, 0, 0, 0], [-1, 0, 1, 0], [ 9E+9,9E+9, 9E9, 9E9, 9E9, 9E9]];
CONST robtarget p11:= [[142.0,15.0,0.0], [-1, 0, 0, 0], [-1, 0, 1, 0], [ 9E+9,9E+9, 9E9, 9E9, 9E9, 9E9]];
CONST robtarget p12:= [[142.0,15.0,-10.0], [-1, 0, 0, 0], [-1, 0, 1, 0], [ 9E+9,9E+9, 9E9, 9E9, 9E9, 9E9]];
CONST robtarget p13:= [[141.0,16.0,0.0], [-1, 0, 0, 0], [-1, 0, 1, 0], [ 9E+9,9E+9, 9E9, 9E9, 9E9, 9E9]];
CONST robtarget p14:= [[141.0,16.0,0.0], [-1, 0, 0, 0], [-1, 0, 1, 0], [ 9E+9,9E+9, 9E9, 9E9, 9E9, 9E9]];
CONST robtarget p15:= [[160.0,16.0,0.0], [-1, 0, 0, 0], [-1, 0, 1, 0], [ 9E+9,9E+9, 9E9, 9E9, 9E9, 9E9]];
CONST robtarget p16:= [[160.0,16.0,-10.0], [-1, 0, 0, 0], [-1, 0, 1, 0], [ 9E+9,9E+9, 9E9, 9E9, 9E9, 9E9]];
CONST robtarget p17:= [[160.0,17.0,0.0], [-1, 0, 0, 0], [-1, 0, 1, 0], [ 9E+9,9E+9, 9E9, 9E9, 9E9, 9E9]];
CONST robtarget p18:= [[160.0,17.0,0.0], [-1, 0, 0, 0], [-1, 0, 1, 0], [ 9E+9,9E+9, 9E9, 9E9, 9E9, 9E9]];
CONST robtarget p19:= [[141.0,17.0,0.0], [-1, 0, 0, 0], [-1, 0, 1, 0], [ 9E+9,9E+9, 9E9, 9E9, 9E9, 9E9]];
CONST robtarget p20:= [[141.0,17.0,-10.0], [-1, 0, 0, 0], [-1, 0, 1, 0], [ 9E+9,9E+9, 9E9, 9E9, 9E9, 9E9]];
CONST robtarget p21:= [[140.0,18.0,0.0], [-1, 0, 0, 0], [-1, 0, 1, 0], [ 9E+9,9E+9, 9E9, 9E9, 9E9, 9E9]];
CONST robtarget p22:= [[140.0,18.0,0.0], [-1, 0, 0, 0], [-1, 0, 1, 0], [ 9E+9,9E+9, 9E9, 9E9, 9E9, 9E9]];
CONST robtarget p23:= [[161.0,18.0,0.0], [-1, 0, 0, 0], [-1, 0, 1, 0], [ 9E+9,9E+9, 9E9, 9E9, 9E9, 9E9]];
CONST robtarget p24:= [[161.0,18.0,-10.0], [-1, 0, 0, 0], [-1, 0, 1, 0], [ 9E+9,9E+9, 9E9, 9E9, 9E9, 9E9]];
CONST robtarget p25:= [[161.0,19.0,0.0], [-1, 0, 0, 0], [-1, 0, 1, 0], [ 9E+9,9E+9, 9E9, 9E9, 9E9, 9E9]];
CONST robtarget p26:= [[161.0,19.0,0.0], [-1, 0, 0, 0], [-1, 0, 1, 0], [ 9E+9,9E+9, 9E9, 9E9, 9E9, 9E9]];
CONST robtarget p27:= [[140.0,19.0,0.0], [-1, 0, 0, 0], [-1, 0, 1, 0], [ 9E+9,9E+9, 9E9, 9E9, 9E9, 9E9]];
CONST robtarget p28:= [[140.0,19.0,-10.0], [-1, 0, 0, 0], [-1, 0, 1, 0], [ 9E+9,9E+9, 9E9, 9E9, 9E9, 9E9]];
CONST robtarget p29:= [[140.0,20.0,0.0], [-1, 0, 0, 0], [-1, 0, 1, 0], [ 9E+9,9E+9, 9E9, 9E9, 9E9, 9E9]];
CONST robtarget p30:= [[140.0,20.0,0.0], [-1, 0, 0, 0], [-1, 0, 1, 0], [ 9E+9,9E+9, 9E9, 9E9, 9E9, 9E9]];
CONST robtarget p31:= [[161.0,20.0,0.0], [-1, 0, 0, 0], [-1, 0, 1, 0], [ 9E+9,9E+9, 9E9, 9E9, 9E9, 9E9]];
CONST robtarget p32:= [[161.0,20.0,-10.0], [-1, 0, 0, 0], [-1, 0, 1, 0], [ 9E+9,9E+9, 9E9, 9E9, 9E9, 9E9]];
CONST robtarget p33:= [[176.0,21.0,0.0], [-1, 0, 0, 0], [-1, 0, 1, 0], [ 9E+9,9E+9, 9E9, 9E9, 9E9, 9E9]];
CONST robtarget p34:= [[176.0,21.0,0.0], [-1, 0, 0, 0], [-1, 0, 1, 0], [ 9E+9,9E+9, 9E9, 9E9, 9E9, 9E9]];
CONST robtarget p35:= [[169.0,21.0,0.0], [-1, 0, 0, 0], [-1, 0, 1, 0], [ 9E+9,9E+9, 9E9, 9E9, 9E9, 9E9]];
CONST robtarget p36:= [[169.0,21.0,-10.0], [-1, 0, 0, 0], [-1, 0, 1, 0], [ 9E+9,9E+9, 9E9, 9E9, 9E9, 9E9]];
CONST robtarget p37:= [[162.0,21.0,0.0], [-1, 0, 0, 0], [-1, 0, 1, 0], [ 9E+9,9E+9, 9E9, 9E9, 9E9, 9E9]];
CONST robtarget p38:= [[162.0,21.0,0.0], [-1, 0, 0, 0], [-1, 0, 1, 0], [ 9E+9,9E+9, 9E9, 9E9, 9E9, 9E9]];
CONST robtarget p39:= [[153.0,21.0,0.0], [-1, 0, 0, 0], [-1, 0, 1, 0], [ 9E+9,9E+9, 9E9, 9E9, 9E9, 9E9]];
CONST robtarget p40:= [[153.0,21.0,-10.0], [-1, 0, 0, 0], [-1, 0, 1, 0], [ 9E+9,9E+9, 9E9, 9E9, 9E9, 9E9]];
CONST robtarget p41:= [[148.0,21.0,0.0], [-1, 0, 0, 0], [-1, 0, 1, 0], [ 9E+9,9E+9, 9E9, 9E9, 9E9, 9E9]];
CONST robtarget p42:= [[148.0,21.0,0.0], [-1, 0, 0, 0], [-1, 0, 1, 0], [ 9E+9,9E+9, 9E9, 9E9, 9E9, 9E9]];
CONST robtarget p43:= [[139.0,21.0,0.0], [-1, 0, 0, 0], [-1, 0, 1, 0], [ 9E+9,9E+9, 9E9, 9E9, 9E9, 9E9]];
CONST robtarget p44:= [[139.0,21.0,-10.0], [-1, 0, 0, 0], [-1, 0, 1, 0], [ 9E+9,9E+9, 9E9, 9E9, 9E9, 9E9]];
CONST robtarget p45:= [[132.0,21.0,0.0], [-1, 0, 0, 0], [-1, 0, 1, 0], [ 9E+9,9E+9, 9E9, 9E9, 9E9, 9E9]];
CONST robtarget p46:= [[132.0,21.0,0.0], [-1, 0, 0, 0], [-1, 0, 1, 0], [ 9E+9,9E+9, 9E9, 9E9, 9E9, 9E9]];
CONST robtarget p47:= [[125.0,21.0,0.0], [-1, 0, 0, 0], [-1, 0, 1, 0], [ 9E+9,9E+9, 9E9, 9E9, 9E9, 9E9]];
CONST robtarget p48:= [[125.0,21.0,-10.0], [-1, 0, 0, 0], [-1, 0, 1, 0], [ 9E+9,9E+9, 9E9, 9E9, 9E9, 9E9]];
CONST robtarget p49:= [[123.0,22.0,0.0], [-1, 0, 0, 0], [-1, 0, 1, 0], [ 9E+9,9E+9, 9E9, 9E9, 9E9, 9E9]];
CONST robtarget p50:= [[123.0,22.0,0.0], [-1, 0, 0, 0], [-1, 0, 1, 0], [ 9E+9,9E+9, 9E9, 9E9, 9E9, 9E9]];
CONST robtarget p51:= [[134.0,22.0,0.0], [-1, 0, 0, 0], [-1, 0, 1, 0], [ 9E+9,9E+9, 9E9, 9E9, 9E9, 9E9]];
CONST robtarget p52:= [[134.0,22.0,-10.0], [-1, 0, 0, 0], [-1, 0, 1, 0], [ 9E+9,9E+9, 9E9, 9E9, 9E9, 9E9]];
CONST robtarget p53:= [[139.0,22.0,0.0], [-1, 0, 0, 0], [-1, 0, 1, 0], [ 9E+9,9E+9, 9E9, 9E9, 9E9, 9E9]];
CONST robtarget p54:= [[139.0,22.0,0.0], [-1, 0, 0, 0], [-1, 0, 1, 0], [ 9E+9,9E+9, 9E9, 9E9, 9E9, 9E9]];
CONST robtarget p55:= [[147.0,22.0,0.0], [-1, 0, 0, 0], [-1, 0, 1, 0], [ 9E+9,9E+9, 9E9, 9E9, 9E9, 9E9]];
CONST robtarget p56:= [[147.0,22.0,-10.0], [-1, 0, 0, 0], [-1, 0, 1, 0], [ 9E+9,9E+9, 9E9, 9E9, 9E9, 9E9]];
CONST robtarget p57:= [[154.0,22.0,0.0], [-1, 0, 0, 0], [-1, 0, 1, 0], [ 9E+9,9E+9, 9E9, 9E9, 9E9, 9E9]];
CONST robtarget p58:= [[154.0,22.0,0.0], [-1, 0, 0, 0], [-1, 0, 1, 0], [ 9E+9,9E+9, 9E9, 9E9, 9E9, 9E9]];
CONST robtarget p59:= [[162.0,22.0,0.0], [-1, 0, 0, 0], [-1, 0, 1, 0], [ 9E+9,9E+9, 9E9, 9E9, 9E9, 9E9]];
CONST robtarget p60:= [[162.0,22.0,-10.0], [-1, 0, 0, 0], [-1, 0, 1, 0], [ 9E+9,9E+9, 9E9, 9E9, 9E9, 9E9]];
CONST robtarget p61:= [[167.0,22.0,0.0], [-1, 0, 0, 0], [-1, 0, 1, 0], [ 9E+9,9E+9, 9E9, 9E9, 9E9, 9E9]];
CONST robtarget p62:= [[167.0,22.0,0.0], [-1, 0, 0, 0], [-1, 0, 1, 0], [ 9E+9,9E+9, 9E9, 9E9, 9E9, 9E9]];
CONST robtarget p63:= [[178.0,22.0,0.0], [-1, 0, 0, 0], [-1, 0, 1, 0], [ 9E+9,9E+9, 9E9, 9E9, 9E9, 9E9]];
CONST robtarget p64:= [[178.0,22.0,-10.0], [-1, 0, 0, 0], [-1, 0, 1, 0], [ 9E+9,9E+9, 9E9, 9E9, 9E9, 9E9]];
CONST robtarget p65:= [[179.0,23.0,0.0], [-1, 0, 0, 0], [-1, 0, 1, 0], [ 9E+9,9E+9, 9E9, 9E9, 9E9, 9E9]];
CONST robtarget p66:= [[179.0,23.0,0.0], [-1, 0, 0, 0], [-1, 0, 1, 0], [ 9E+9,9E+9, 9E9, 9E9, 9E9, 9E9]];
CONST robtarget p67:= [[154.0,23.0,0.0], [-1, 0, 0, 0], [-1, 0, 1, 0], [ 9E+9,9E+9, 9E9, 9E9, 9E9, 9E9]];
CONST robtarget p68:= [[154.0,23.0,-10.0], [-1, 0, 0, 0], [-1, 0, 1, 0], [ 9E+9,9E+9, 9E9, 9E9, 9E9, 9E9]];
CONST robtarget p69:= [[147.0,23.0,0.0], [-1, 0, 0, 0], [-1, 0, 1, 0], [ 9E+9,9E+9, 9E9, 9E9, 9E9, 9E9]];
CONST robtarget p70:= [[147.0,23.0,0.0], [-1, 0, 0, 0], [-1, 0, 1, 0], [ 9E+9,9E+9, 9E9, 9E9, 9E9, 9E9]];
CONST robtarget p71:= [[122.0,23.0,0.0], [-1, 0, 0, 0], [-1, 0, 1, 0], [ 9E+9,9E+9, 9E9, 9E9, 9E9, 9E9]];
CONST robtarget p72:= [[122.0,23.0,-10.0], [-1, 0, 0, 0], [-1, 0, 1, 0], [ 9E+9,9E+9, 9E9, 9E9, 9E9, 9E9]];
CONST robtarget p73:= [[121.0,24.0,0.0], [-1, 0, 0, 0], [-1, 0, 1, 0], [ 9E+9,9E+9, 9E9, 9E9, 9E9, 9E9]];
CONST robtarget p74:= [[121.0,24.0,0.0], [-1, 0, 0, 0], [-1, 0, 1, 0], [ 9E+9,9E+9, 9E9, 9E9, 9E9, 9E9]];
CONST robtarget p75:= [[147.0,24.0,0.0], [-1, 0, 0, 0], [-1, 0, 1, 0], [ 9E+9,9E+9, 9E9, 9E9, 9E9, 9E9]];
CONST robtarget p76:= [[147.0,24.0,-10.0], [-1, 0, 0, 0], [-1, 0, 1, 0], [ 9E+9,9E+9, 9E9, 9E9, 9E9, 9E9]];
CONST robtarget p77:= [[154.0,24.0,0.0], [-1, 0, 0, 0], [-1, 0, 1, 0], [ 9E+9,9E+9, 9E9, 9E9, 9E9, 9E9]];
CONST robtarget p78:= [[154.0,24.0,0.0], [-1, 0, 0, 0], [-1, 0, 1, 0], [ 9E+9,9E+9, 9E9, 9E9, 9E9, 9E9]];
CONST robtarget p79:= [[180.0,24.0,0.0], [-1, 0, 0, 0], [-1, 0, 1, 0], [ 9E+9,9E+9, 9E9, 9E9, 9E9, 9E9]];
CONST robtarget p80:= [[180.0,24.0,-10.0], [-1, 0, 0, 0], [-1, 0, 1, 0], [ 9E+9,9E+9, 9E9, 9E9, 9E9, 9E9]];
CONST robtarget p81:= [[181.0,25.0,0.0], [-1, 0, 0, 0], [-1, 0, 1, 0], [ 9E+9,9E+9, 9E9, 9E9, 9E9, 9E9]];
CONST robtarget p82:= [[181.0,25.0,0.0], [-1, 0, 0, 0], [-1, 0, 1, 0], [ 9E+9,9E+9, 9E9, 9E9, 9E9, 9E9]];
CONST robtarget p83:= [[154.0,25.0,0.0], [-1, 0, 0, 0], [-1, 0, 1, 0], [ 9E+9,9E+9, 9E9, 9E9, 9E9, 9E9]];
CONST robtarget p84:= [[154.0,25.0,-10.0], [-1, 0, 0, 0], [-1, 0, 1, 0], [ 9E+9,9E+9, 9E9, 9E9, 9E9, 9E9]];
CONST robtarget p85:= [[147.0,25.0,0.0], [-1, 0, 0, 0], [-1, 0, 1, 0], [ 9E+9,9E+9, 9E9, 9E9, 9E9, 9E9]];
CONST robtarget p86:= [[147.0,25.0,0.0], [-1, 0, 0, 0], [-1, 0, 1, 0], [ 9E+9,9E+9, 9E9, 9E9, 9E9, 9E9]];
CONST robtarget p87:= [[120.0,25.0,0.0], [-1, 0, 0, 0], [-1, 0, 1, 0], [ 9E+9,9E+9, 9E9, 9E9, 9E9, 9E9]];
CONST robtarget p88:= [[120.0,25.0,-10.0], [-1, 0, 0, 0], [-1, 0, 1, 0], [ 9E+9,9E+9, 9E9, 9E9, 9E9, 9E9]];
CONST robtarget p89:= [[119.0,26.0,0.0], [-1, 0, 0, 0], [-1, 0, 1, 0], [ 9E+9,9E+9, 9E9, 9E9, 9E9, 9E9]];
CONST robtarget p90:= [[119.0,26.0,0.0], [-1, 0, 0, 0], [-1, 0, 1, 0], [ 9E+9,9E+9, 9E9, 9E9, 9E9, 9E9]];
CONST robtarget p91:= [[146.0,26.0,0.0], [-1, 0, 0, 0], [-1, 0, 1, 0], [ 9E+9,9E+9, 9E9, 9E9, 9E9, 9E9]];
CONST robtarget p92:= [[146.0,26.0,-10.0], [-1, 0, 0, 0], [-1, 0, 1, 0], [ 9E+9,9E+9, 9E9, 9E9, 9E9, 9E9]];
CONST robtarget p93:= [[155.0,26.0,0.0], [-1, 0, 0, 0], [-1, 0, 1, 0], [ 9E+9,9E+9, 9E9, 9E9, 9E9, 9E9]];
CONST robtarget p94:= [[155.0,26.0,0.0], [-1, 0, 0, 0], [-1, 0, 1, 0], [ 9E+9,9E+9, 9E9, 9E9, 9E9, 9E9]];
CONST robtarget p95:= [[182.0,26.0,0.0], [-1, 0, 0, 0], [-1, 0, 1, 0], [ 9E+9,9E+9, 9E9, 9E9, 9E9, 9E9]];
CONST robtarget p96:= [[182.0,26.0,-10.0], [-1, 0, 0, 0], [-1, 0, 1, 0], [ 9E+9,9E+9, 9E9, 9E9, 9E9, 9E9]];
CONST robtarget p97:= [[183.0,27.0,0.0], [-1, 0, 0, 0], [-1, 0, 1, 0], [ 9E+9,9E+9, 9E9, 9E9, 9E9, 9E9]];
CONST robtarget p98:= [[183.0,27.0,0.0], [-1, 0, 0, 0], [-1, 0, 1, 0], [ 9E+9,9E+9, 9E9, 9E9, 9E9, 9E9]];
CONST robtarget p99:= [[155.0,27.0,0.0], [-1, 0, 0, 0], [-1, 0, 1, 0], [ 9E+9,9E+9, 9E9, 9E9, 9E9, 9E9]];
CONST robtarget p100:= [[155.0,27.0,-10.0], [-1, 0, 0, 0], [-1, 0, 1, 0], [ 9E+9,9E+9, 9E9, 9E9, 9E9, 9E9]];
CONST robtarget p101:= [[146.0,27.0,0.0], [-1, 0, 0, 0], [-1, 0, 1, 0], [ 9E+9,9E+9, 9E9, 9E9, 9E9, 9E9]];
CONST robtarget p102:= [[146.0,27.0,0.0], [-1, 0, 0, 0], [-1, 0, 1, 0], [ 9E+9,9E+9, 9E9, 9E9, 9E9, 9E9]];
CONST robtarget p103:= [[118.0,27.0,0.0], [-1, 0, 0, 0], [-1, 0, 1, 0], [ 9E+9,9E+9, 9E9, 9E9, 9E9, 9E9]];
CONST robtarget p104:= [[118.0,27.0,-10.0], [-1, 0, 0, 0], [-1, 0, 1, 0], [ 9E+9,9E+9, 9E9, 9E9, 9E9, 9E9]];
CONST robtarget p105:= [[118.0,28.0,0.0], [-1, 0, 0, 0], [-1, 0, 1, 0], [ 9E+9,9E+9, 9E9, 9E9, 9E9, 9E9]];
CONST robtarget p106:= [[118.0,28.0,0.0], [-1, 0, 0, 0], [-1, 0, 1, 0], [ 9E+9,9E+9, 9E9, 9E9, 9E9, 9E9]];
CONST robtarget p107:= [[145.0,28.0,0.0], [-1, 0, 0, 0], [-1, 0, 1, 0], [ 9E+9,9E+9, 9E9, 9E9, 9E9, 9E9]];
CONST robtarget p108:= [[145.0,28.0,-10.0], [-1, 0, 0, 0], [-1, 0, 1, 0], [ 9E+9,9E+9, 9E9, 9E9, 9E9, 9E9]];
CONST robtarget p109:= [[156.0,28.0,0.0], [-1, 0, 0, 0], [-1, 0, 1, 0], [ 9E+9,9E+9, 9E9, 9E9, 9E9, 9E9]];
CONST robtarget p110:= [[156.0,28.0,0.0], [-1, 0, 0, 0], [-1, 0, 1, 0], [ 9E+9,9E+9, 9E9, 9E9, 9E9, 9E9]];
CONST robtarget p111:= [[184.0,28.0,0.0], [-1, 0, 0, 0], [-1, 0, 1, 0], [ 9E+9,9E+9, 9E9, 9E9, 9E9, 9E9]];
CONST robtarget p112:= [[184.0,28.0,-10.0], [-1, 0, 0, 0], [-1, 0, 1, 0], [ 9E+9,9E+9, 9E9, 9E9, 9E9, 9E9]];
CONST robtarget p113:= [[184.0,29.0,0.0], [-1, 0, 0, 0], [-1, 0, 1, 0], [ 9E+9,9E+9, 9E9, 9E9, 9E9, 9E9]];
CONST robtarget p114:= [[184.0,29.0,0.0], [-1, 0, 0, 0], [-1, 0, 1, 0], [ 9E+9,9E+9, 9E9, 9E9, 9E9, 9E9]];
CONST robtarget p115:= [[174.0,29.0,0.0], [-1, 0, 0, 0], [-1, 0, 1, 0], [ 9E+9,9E+9, 9E9, 9E9, 9E9, 9E9]];
CONST robtarget p116:= [[174.0,29.0,-10.0], [-1, 0, 0, 0], [-1, 0, 1, 0], [ 9E+9,9E+9, 9E9, 9E9, 9E9, 9E9]];
CONST robtarget p117:= [[171.0,29.0,0.0], [-1, 0, 0, 0], [-1, 0, 1, 0], [ 9E+9,9E+9, 9E9, 9E9, 9E9, 9E9]];
CONST robtarget p118:= [[171.0,29.0,0.0], [-1, 0, 0, 0], [-1, 0, 1, 0], [ 9E+9,9E+9, 9E9, 9E9, 9E9, 9E9]];
CONST robtarget p119:= [[158.0,29.0,0.0], [-1, 0, 0, 0], [-1, 0, 1, 0], [ 9E+9,9E+9, 9E9, 9E9, 9E9, 9E9]];
CONST robtarget p120:= [[158.0,29.0,-10.0], [-1, 0, 0, 0], [-1, 0, 1, 0], [ 9E+9,9E+9, 9E9, 9E9, 9E9, 9E9]];
CONST robtarget p121:= [[144.0,29.0,0.0], [-1, 0, 0, 0], [-1, 0, 1, 0], [ 9E+9,9E+9, 9E9, 9E9, 9E9, 9E9]];
CONST robtarget p122:= [[144.0,29.0,0.0], [-1, 0, 0, 0], [-1, 0, 1, 0], [ 9E+9,9E+9, 9E9, 9E9, 9E9, 9E9]];
CONST robtarget p123:= [[130.0,29.0,0.0], [-1, 0, 0, 0], [-1, 0, 1, 0], [ 9E+9,9E+9, 9E9, 9E9, 9E9, 9E9]];
CONST robtarget p124:= [[130.0,29.0,-10.0], [-1, 0, 0, 0], [-1, 0, 1, 0], [ 9E+9,9E+9, 9E9, 9E9, 9E9, 9E9]];
CONST robtarget p125:= [[127.0,29.0,0.0], [-1, 0, 0, 0], [-1, 0, 1, 0], [ 9E+9,9E+9, 9E9, 9E9, 9E9, 9E9]];
CONST robtarget p126:= [[127.0,29.0,0.0], [-1, 0, 0, 0], [-1, 0, 1, 0], [ 9E+9,9E+9, 9E9, 9E9, 9E9, 9E9]];
CONST robtarget p127:= [[117.0,29.0,0.0], [-1, 0, 0, 0], [-1, 0, 1, 0], [ 9E+9,9E+9, 9E9, 9E9, 9E9, 9E9]];
CONST robtarget p128:= [[117.0,29.0,-10.0], [-1, 0, 0, 0], [-1, 0, 1, 0], [ 9E+9,9E+9, 9E9, 9E9, 9E9, 9E9]];
CONST robtarget p129:= [[117.0,30.0,0.0], [-1, 0, 0, 0], [-1, 0, 1, 0], [ 9E+9,9E+9, 9E9, 9E9, 9E9, 9E9]];
CONST robtarget p130:= [[117.0,30.0,0.0], [-1, 0, 0, 0], [-1, 0, 1, 0], [ 9E+9,9E+9, 9E9, 9E9, 9E9, 9E9]];
CONST robtarget p131:= [[126.0,30.0,0.0], [-1, 0, 0, 0], [-1, 0, 1, 0], [ 9E+9,9E+9, 9E9, 9E9, 9E9, 9E9]];
CONST robtarget p132:= [[126.0,30.0,-10.0], [-1, 0, 0, 0], [-1, 0, 1, 0], [ 9E+9,9E+9, 9E9, 9E9, 9E9, 9E9]];
CONST robtarget p133:= [[132.0,30.0,0.0], [-1, 0, 0, 0], [-1, 0, 1, 0], [ 9E+9,9E+9, 9E9, 9E9, 9E9, 9E9]];
CONST robtarget p134:= [[132.0,30.0,0.0], [-1, 0, 0, 0], [-1, 0, 1, 0], [ 9E+9,9E+9, 9E9, 9E9, 9E9, 9E9]];
CONST robtarget p135:= [[141.0,30.0,0.0], [-1, 0, 0, 0], [-1, 0, 1, 0], [ 9E+9,9E+9, 9E9, 9E9, 9E9, 9E9]];
CONST robtarget p136:= [[141.0,30.0,-10.0], [-1, 0, 0, 0], [-1, 0, 1, 0], [ 9E+9,9E+9, 9E9, 9E9, 9E9, 9E9]];
CONST robtarget p137:= [[160.0,30.0,0.0], [-1, 0, 0, 0], [-1, 0, 1, 0], [ 9E+9,9E+9, 9E9, 9E9, 9E9, 9E9]];
CONST robtarget p138:= [[160.0,30.0,0.0], [-1, 0, 0, 0], [-1, 0, 1, 0], [ 9E+9,9E+9, 9E9, 9E9, 9E9, 9E9]];
CONST robtarget p139:= [[170.0,30.0,0.0], [-1, 0, 0, 0], [-1, 0, 1, 0], [ 9E+9,9E+9, 9E9, 9E9, 9E9, 9E9]];
CONST robtarget p140:= [[170.0,30.0,-10.0], [-1, 0, 0, 0], [-1, 0, 1, 0], [ 9E+9,9E+9, 9E9, 9E9, 9E9, 9E9]];
CONST robtarget p141:= [[175.0,30.0,0.0], [-1, 0, 0, 0], [-1, 0, 1, 0], [ 9E+9,9E+9, 9E9, 9E9, 9E9, 9E9]];
CONST robtarget p142:= [[175.0,30.0,0.0], [-1, 0, 0, 0], [-1, 0, 1, 0], [ 9E+9,9E+9, 9E9, 9E9, 9E9, 9E9]];
CONST robtarget p143:= [[184.0,30.0,0.0], [-1, 0, 0, 0], [-1, 0, 1, 0], [ 9E+9,9E+9, 9E9, 9E9, 9E9, 9E9]];
CONST robtarget p144:= [[184.0,30.0,-10.0], [-1, 0, 0, 0], [-1, 0, 1, 0], [ 9E+9,9E+9, 9E9, 9E9, 9E9, 9E9]];
CONST robtarget p145:= [[185.0,31.0,0.0], [-1, 0, 0, 0], [-1, 0, 1, 0], [ 9E+9,9E+9, 9E9, 9E9, 9E9, 9E9]];
CONST robtarget p146:= [[185.0,31.0,0.0], [-1, 0, 0, 0], [-1, 0, 1, 0], [ 9E+9,9E+9, 9E9, 9E9, 9E9, 9E9]];
CONST robtarget p147:= [[176.0,31.0,0.0], [-1, 0, 0, 0], [-1, 0, 1, 0], [ 9E+9,9E+9, 9E9, 9E9, 9E9, 9E9]];
CONST robtarget p148:= [[176.0,31.0,-10.0], [-1, 0, 0, 0], [-1, 0, 1, 0], [ 9E+9,9E+9, 9E9, 9E9, 9E9, 9E9]];
CONST robtarget p149:= [[168.0,31.0,0.0], [-1, 0, 0, 0], [-1, 0, 1, 0], [ 9E+9,9E+9, 9E9, 9E9, 9E9, 9E9]];
CONST robtarget p150:= [[168.0,31.0,0.0], [-1, 0, 0, 0], [-1, 0, 1, 0], [ 9E+9,9E+9, 9E9, 9E9, 9E9, 9E9]];
CONST robtarget p151:= [[163.0,31.0,0.0], [-1, 0, 0, 0], [-1, 0, 1, 0], [ 9E+9,9E+9, 9E9, 9E9, 9E9, 9E9]];
CONST robtarget p152:= [[163.0,31.0,-10.0], [-1, 0, 0, 0], [-1, 0, 1, 0], [ 9E+9,9E+9, 9E9, 9E9, 9E9, 9E9]];
CONST robtarget p153:= [[138.0,31.0,0.0], [-1, 0, 0, 0], [-1, 0, 1, 0], [ 9E+9,9E+9, 9E9, 9E9, 9E9, 9E9]];
CONST robtarget p154:= [[138.0,31.0,0.0], [-1, 0, 0, 0], [-1, 0, 1, 0], [ 9E+9,9E+9, 9E9, 9E9, 9E9, 9E9]];
CONST robtarget p155:= [[133.0,31.0,0.0], [-1, 0, 0, 0], [-1, 0, 1, 0], [ 9E+9,9E+9, 9E9, 9E9, 9E9, 9E9]];
CONST robtarget p156:= [[133.0,31.0,-10.0], [-1, 0, 0, 0], [-1, 0, 1, 0], [ 9E+9,9E+9, 9E9, 9E9, 9E9, 9E9]];
CONST robtarget p157:= [[125.0,31.0,0.0], [-1, 0, 0, 0], [-1, 0, 1, 0], [ 9E+9,9E+9, 9E9, 9E9, 9E9, 9E9]];
CONST robtarget p158:= [[125.0,31.0,0.0], [-1, 0, 0, 0], [-1, 0, 1, 0], [ 9E+9,9E+9, 9E9, 9E9, 9E9, 9E9]];
CONST robtarget p159:= [[117.0,31.0,0.0], [-1, 0, 0, 0], [-1, 0, 1, 0], [ 9E+9,9E+9, 9E9, 9E9, 9E9, 9E9]];
CONST robtarget p160:= [[117.0,31.0,-10.0], [-1, 0, 0, 0], [-1, 0, 1, 0], [ 9E+9,9E+9, 9E9, 9E9, 9E9, 9E9]];
CONST robtarget p161:= [[117.0,32.0,0.0], [-1, 0, 0, 0], [-1, 0, 1, 0], [ 9E+9,9E+9, 9E9, 9E9, 9E9, 9E9]];
CONST robtarget p162:= [[117.0,32.0,0.0], [-1, 0, 0, 0], [-1, 0, 1, 0], [ 9E+9,9E+9, 9E9, 9E9, 9E9, 9E9]];
CONST robtarget p163:= [[125.0,32.0,0.0], [-1, 0, 0, 0], [-1, 0, 1, 0], [ 9E+9,9E+9, 9E9, 9E9, 9E9, 9E9]];
CONST robtarget p164:= [[125.0,32.0,-10.0], [-1, 0, 0, 0], [-1, 0, 1, 0], [ 9E+9,9E+9, 9E9, 9E9, 9E9, 9E9]];
CONST robtarget p165:= [[176.0,32.0,0.0], [-1, 0, 0, 0], [-1, 0, 1, 0], [ 9E+9,9E+9, 9E9, 9E9, 9E9, 9E9]];
CONST robtarget p166:= [[176.0,32.0,0.0], [-1, 0, 0, 0], [-1, 0, 1, 0], [ 9E+9,9E+9, 9E9, 9E9, 9E9, 9E9]];
CONST robtarget p167:= [[185.0,32.0,0.0], [-1, 0, 0, 0], [-1, 0, 1, 0], [ 9E+9,9E+9, 9E9, 9E9, 9E9, 9E9]];
CONST robtarget p168:= [[185.0,32.0,-10.0], [-1, 0, 0, 0], [-1, 0, 1, 0], [ 9E+9,9E+9, 9E9, 9E9, 9E9, 9E9]];
CONST robtarget p169:= [[184.0,33.0,0.0], [-1, 0, 0, 0], [-1, 0, 1, 0], [ 9E+9,9E+9, 9E9, 9E9, 9E9, 9E9]];
CONST robtarget p170:= [[184.0,33.0,0.0], [-1, 0, 0, 0], [-1, 0, 1, 0], [ 9E+9,9E+9, 9E9, 9E9, 9E9, 9E9]];
CONST robtarget p171:= [[176.0,33.0,0.0], [-1, 0, 0, 0], [-1, 0, 1, 0], [ 9E+9,9E+9, 9E9, 9E9, 9E9, 9E9]];
CONST robtarget p172:= [[176.0,33.0,-10.0], [-1, 0, 0, 0], [-1, 0, 1, 0], [ 9E+9,9E+9, 9E9, 9E9, 9E9, 9E9]];
CONST robtarget p173:= [[126.0,33.0,0.0], [-1, 0, 0, 0], [-1, 0, 1, 0], [ 9E+9,9E+9, 9E9, 9E9, 9E9, 9E9]];
CONST robtarget p174:= [[126.0,33.0,0.0], [-1, 0, 0, 0], [-1, 0, 1, 0], [ 9E+9,9E+9, 9E9, 9E9, 9E9, 9E9]];
CONST robtarget p175:= [[117.0,33.0,0.0], [-1, 0, 0, 0], [-1, 0, 1, 0], [ 9E+9,9E+9, 9E9, 9E9, 9E9, 9E9]];
CONST robtarget p176:= [[117.0,33.0,-10.0], [-1, 0, 0, 0], [-1, 0, 1, 0], [ 9E+9,9E+9, 9E9, 9E9, 9E9, 9E9]];
CONST robtarget p177:= [[117.0,34.0,0.0], [-1, 0, 0, 0], [-1, 0, 1, 0], [ 9E+9,9E+9, 9E9, 9E9, 9E9, 9E9]];
CONST robtarget p178:= [[117.0,34.0,0.0], [-1, 0, 0, 0], [-1, 0, 1, 0], [ 9E+9,9E+9, 9E9, 9E9, 9E9, 9E9]];
CONST robtarget p179:= [[126.0,34.0,0.0], [-1, 0, 0, 0], [-1, 0, 1, 0], [ 9E+9,9E+9, 9E9, 9E9, 9E9, 9E9]];
CONST robtarget p180:= [[126.0,34.0,-10.0], [-1, 0, 0, 0], [-1, 0, 1, 0], [ 9E+9,9E+9, 9E9, 9E9, 9E9, 9E9]];
CONST robtarget p181:= [[175.0,34.0,0.0], [-1, 0, 0, 0], [-1, 0, 1, 0], [ 9E+9,9E+9, 9E9, 9E9, 9E9, 9E9]];
CONST robtarget p182:= [[175.0,34.0,0.0], [-1, 0, 0, 0], [-1, 0, 1, 0], [ 9E+9,9E+9, 9E9, 9E9, 9E9, 9E9]];
CONST robtarget p183:= [[184.0,34.0,0.0], [-1, 0, 0, 0], [-1, 0, 1, 0], [ 9E+9,9E+9, 9E9, 9E9, 9E9, 9E9]];
CONST robtarget p184:= [[184.0,34.0,-10.0], [-1, 0, 0, 0], [-1, 0, 1, 0], [ 9E+9,9E+9, 9E9, 9E9, 9E9, 9E9]];
CONST robtarget p185:= [[184.0,35.0,0.0], [-1, 0, 0, 0], [-1, 0, 1, 0], [ 9E+9,9E+9, 9E9, 9E9, 9E9, 9E9]];
CONST robtarget p186:= [[184.0,35.0,0.0], [-1, 0, 0, 0], [-1, 0, 1, 0], [ 9E+9,9E+9, 9E9, 9E9, 9E9, 9E9]];
CONST robtarget p187:= [[174.0,35.0,0.0], [-1, 0, 0, 0], [-1, 0, 1, 0], [ 9E+9,9E+9, 9E9, 9E9, 9E9, 9E9]];
CONST robtarget p188:= [[174.0,35.0,-10.0], [-1, 0, 0, 0], [-1, 0, 1, 0], [ 9E+9,9E+9, 9E9, 9E9, 9E9, 9E9]];
CONST robtarget p189:= [[127.0,35.0,0.0], [-1, 0, 0, 0], [-1, 0, 1, 0], [ 9E+9,9E+9, 9E9, 9E9, 9E9, 9E9]];
CONST robtarget p190:= [[127.0,35.0,0.0], [-1, 0, 0, 0], [-1, 0, 1, 0], [ 9E+9,9E+9, 9E9, 9E9, 9E9, 9E9]];
CONST robtarget p191:= [[118.0,35.0,0.0], [-1, 0, 0, 0], [-1, 0, 1, 0], [ 9E+9,9E+9, 9E9, 9E9, 9E9, 9E9]];
CONST robtarget p192:= [[118.0,35.0,-10.0], [-1, 0, 0, 0], [-1, 0, 1, 0], [ 9E+9,9E+9, 9E9, 9E9, 9E9, 9E9]];
CONST robtarget p193:= [[118.0,36.0,0.0], [-1, 0, 0, 0], [-1, 0, 1, 0], [ 9E+9,9E+9, 9E9, 9E9, 9E9, 9E9]];
CONST robtarget p194:= [[118.0,36.0,0.0], [-1, 0, 0, 0], [-1, 0, 1, 0], [ 9E+9,9E+9, 9E9, 9E9, 9E9, 9E9]];
CONST robtarget p195:= [[128.0,36.0,0.0], [-1, 0, 0, 0], [-1, 0, 1, 0], [ 9E+9,9E+9, 9E9, 9E9, 9E9, 9E9]];
CONST robtarget p196:= [[128.0,36.0,-10.0], [-1, 0, 0, 0], [-1, 0, 1, 0], [ 9E+9,9E+9, 9E9, 9E9, 9E9, 9E9]];
CONST robtarget p197:= [[173.0,36.0,0.0], [-1, 0, 0, 0], [-1, 0, 1, 0], [ 9E+9,9E+9, 9E9, 9E9, 9E9, 9E9]];
CONST robtarget p198:= [[173.0,36.0,0.0], [-1, 0, 0, 0], [-1, 0, 1, 0], [ 9E+9,9E+9, 9E9, 9E9, 9E9, 9E9]];
CONST robtarget p199:= [[183.0,36.0,0.0], [-1, 0, 0, 0], [-1, 0, 1, 0], [ 9E+9,9E+9, 9E9, 9E9, 9E9, 9E9]];
CONST robtarget p200:= [[183.0,36.0,-10.0], [-1, 0, 0, 0], [-1, 0, 1, 0], [ 9E+9,9E+9, 9E9, 9E9, 9E9, 9E9]];
CONST robtarget p201:= [[182.0,37.0,0.0], [-1, 0, 0, 0], [-1, 0, 1, 0], [ 9E+9,9E+9, 9E9, 9E9, 9E9, 9E9]];
CONST robtarget p202:= [[182.0,37.0,0.0], [-1, 0, 0, 0], [-1, 0, 1, 0], [ 9E+9,9E+9, 9E9, 9E9, 9E9, 9E9]];
CONST robtarget p203:= [[173.0,37.0,0.0], [-1, 0, 0, 0], [-1, 0, 1, 0], [ 9E+9,9E+9, 9E9, 9E9, 9E9, 9E9]];
CONST robtarget p204:= [[173.0,37.0,-10.0], [-1, 0, 0, 0], [-1, 0, 1, 0], [ 9E+9,9E+9, 9E9, 9E9, 9E9, 9E9]];
CONST robtarget p205:= [[128.0,37.0,0.0], [-1, 0, 0, 0], [-1, 0, 1, 0], [ 9E+9,9E+9, 9E9, 9E9, 9E9, 9E9]];
CONST robtarget p206:= [[128.0,37.0,0.0], [-1, 0, 0, 0], [-1, 0, 1, 0], [ 9E+9,9E+9, 9E9, 9E9, 9E9, 9E9]];
CONST robtarget p207:= [[119.0,37.0,0.0], [-1, 0, 0, 0], [-1, 0, 1, 0], [ 9E+9,9E+9, 9E9, 9E9, 9E9, 9E9]];
CONST robtarget p208:= [[119.0,37.0,-10.0], [-1, 0, 0, 0], [-1, 0, 1, 0], [ 9E+9,9E+9, 9E9, 9E9, 9E9, 9E9]];
CONST robtarget p209:= [[119.0,38.0,0.0], [-1, 0, 0, 0], [-1, 0, 1, 0], [ 9E+9,9E+9, 9E9, 9E9, 9E9, 9E9]];
CONST robtarget p210:= [[119.0,38.0,0.0], [-1, 0, 0, 0], [-1, 0, 1, 0], [ 9E+9,9E+9, 9E9, 9E9, 9E9, 9E9]];
CONST robtarget p211:= [[128.0,38.0,0.0], [-1, 0, 0, 0], [-1, 0, 1, 0], [ 9E+9,9E+9, 9E9, 9E9, 9E9, 9E9]];
CONST robtarget p212:= [[128.0,38.0,-10.0], [-1, 0, 0, 0], [-1, 0, 1, 0], [ 9E+9,9E+9, 9E9, 9E9, 9E9, 9E9]];
CONST robtarget p213:= [[173.0,38.0,0.0], [-1, 0, 0, 0], [-1, 0, 1, 0], [ 9E+9,9E+9, 9E9, 9E9, 9E9, 9E9]];
CONST robtarget p214:= [[173.0,38.0,0.0], [-1, 0, 0, 0], [-1, 0, 1, 0], [ 9E+9,9E+9, 9E9, 9E9, 9E9, 9E9]];
CONST robtarget p215:= [[182.0,38.0,0.0], [-1, 0, 0, 0], [-1, 0, 1, 0], [ 9E+9,9E+9, 9E9, 9E9, 9E9, 9E9]];
CONST robtarget p216:= [[182.0,38.0,-10.0], [-1, 0, 0, 0], [-1, 0, 1, 0], [ 9E+9,9E+9, 9E9, 9E9, 9E9, 9E9]];
CONST robtarget p217:= [[181.0,39.0,0.0], [-1, 0, 0, 0], [-1, 0, 1, 0], [ 9E+9,9E+9, 9E9, 9E9, 9E9, 9E9]];
CONST robtarget p218:= [[181.0,39.0,0.0], [-1, 0, 0, 0], [-1, 0, 1, 0], [ 9E+9,9E+9, 9E9, 9E9, 9E9, 9E9]];
CONST robtarget p219:= [[173.0,39.0,0.0], [-1, 0, 0, 0], [-1, 0, 1, 0], [ 9E+9,9E+9, 9E9, 9E9, 9E9, 9E9]];
CONST robtarget p220:= [[173.0,39.0,-10.0], [-1, 0, 0, 0], [-1, 0, 1, 0], [ 9E+9,9E+9, 9E9, 9E9, 9E9, 9E9]];
CONST robtarget p221:= [[128.0,39.0,0.0], [-1, 0, 0, 0], [-1, 0, 1, 0], [ 9E+9,9E+9, 9E9, 9E9, 9E9, 9E9]];
CONST robtarget p222:= [[128.0,39.0,0.0], [-1, 0, 0, 0], [-1, 0, 1, 0], [ 9E+9,9E+9, 9E9, 9E9, 9E9, 9E9]];
CONST robtarget p223:= [[120.0,39.0,0.0], [-1, 0, 0, 0], [-1, 0, 1, 0], [ 9E+9,9E+9, 9E9, 9E9, 9E9, 9E9]];
CONST robtarget p224:= [[120.0,39.0,-10.0], [-1, 0, 0, 0], [-1, 0, 1, 0], [ 9E+9,9E+9, 9E9, 9E9, 9E9, 9E9]];
CONST robtarget p225:= [[119.0,40.0,0.0], [-1, 0, 0, 0], [-1, 0, 1, 0], [ 9E+9,9E+9, 9E9, 9E9, 9E9, 9E9]];
CONST robtarget p226:= [[119.0,40.0,0.0], [-1, 0, 0, 0], [-1, 0, 1, 0], [ 9E+9,9E+9, 9E9, 9E9, 9E9, 9E9]];
CONST robtarget p227:= [[128.0,40.0,0.0], [-1, 0, 0, 0], [-1, 0, 1, 0], [ 9E+9,9E+9, 9E9, 9E9, 9E9, 9E9]];
CONST robtarget p228:= [[128.0,40.0,-10.0], [-1, 0, 0, 0], [-1, 0, 1, 0], [ 9E+9,9E+9, 9E9, 9E9, 9E9, 9E9]];
CONST robtarget p229:= [[173.0,40.0,0.0], [-1, 0, 0, 0], [-1, 0, 1, 0], [ 9E+9,9E+9, 9E9, 9E9, 9E9, 9E9]];
CONST robtarget p230:= [[173.0,40.0,0.0], [-1, 0, 0, 0], [-1, 0, 1, 0], [ 9E+9,9E+9, 9E9, 9E9, 9E9, 9E9]];
CONST robtarget p231:= [[182.0,40.0,0.0], [-1, 0, 0, 0], [-1, 0, 1, 0], [ 9E+9,9E+9, 9E9, 9E9, 9E9, 9E9]];
CONST robtarget p232:= [[182.0,40.0,-10.0], [-1, 0, 0, 0], [-1, 0, 1, 0], [ 9E+9,9E+9, 9E9, 9E9, 9E9, 9E9]];
CONST robtarget p233:= [[183.0,41.0,0.0], [-1, 0, 0, 0], [-1, 0, 1, 0], [ 9E+9,9E+9, 9E9, 9E9, 9E9, 9E9]];
CONST robtarget p234:= [[183.0,41.0,0.0], [-1, 0, 0, 0], [-1, 0, 1, 0], [ 9E+9,9E+9, 9E9, 9E9, 9E9, 9E9]];
CONST robtarget p235:= [[174.0,41.0,0.0], [-1, 0, 0, 0], [-1, 0, 1, 0], [ 9E+9,9E+9, 9E9, 9E9, 9E9, 9E9]];
CONST robtarget p236:= [[174.0,41.0,-10.0], [-1, 0, 0, 0], [-1, 0, 1, 0], [ 9E+9,9E+9, 9E9, 9E9, 9E9, 9E9]];
CONST robtarget p237:= [[128.0,41.0,0.0], [-1, 0, 0, 0], [-1, 0, 1, 0], [ 9E+9,9E+9, 9E9, 9E9, 9E9, 9E9]];
CONST robtarget p238:= [[128.0,41.0,0.0], [-1, 0, 0, 0], [-1, 0, 1, 0], [ 9E+9,9E+9, 9E9, 9E9, 9E9, 9E9]];
CONST robtarget p239:= [[119.0,41.0,0.0], [-1, 0, 0, 0], [-1, 0, 1, 0], [ 9E+9,9E+9, 9E9, 9E9, 9E9, 9E9]];
CONST robtarget p240:= [[119.0,41.0,-10.0], [-1, 0, 0, 0], [-1, 0, 1, 0], [ 9E+9,9E+9, 9E9, 9E9, 9E9, 9E9]];
CONST robtarget p241:= [[119.0,42.0,0.0], [-1, 0, 0, 0], [-1, 0, 1, 0], [ 9E+9,9E+9, 9E9, 9E9, 9E9, 9E9]];
CONST robtarget p242:= [[119.0,42.0,0.0], [-1, 0, 0, 0], [-1, 0, 1, 0], [ 9E+9,9E+9, 9E9, 9E9, 9E9, 9E9]];
CONST robtarget p243:= [[127.0,42.0,0.0], [-1, 0, 0, 0], [-1, 0, 1, 0], [ 9E+9,9E+9, 9E9, 9E9, 9E9, 9E9]];
CONST robtarget p244:= [[127.0,42.0,-10.0], [-1, 0, 0, 0], [-1, 0, 1, 0], [ 9E+9,9E+9, 9E9, 9E9, 9E9, 9E9]];
CONST robtarget p245:= [[174.0,42.0,0.0], [-1, 0, 0, 0], [-1, 0, 1, 0], [ 9E+9,9E+9, 9E9, 9E9, 9E9, 9E9]];
CONST robtarget p246:= [[174.0,42.0,0.0], [-1, 0, 0, 0], [-1, 0, 1, 0], [ 9E+9,9E+9, 9E9, 9E9, 9E9, 9E9]];
CONST robtarget p247:= [[187.0,42.0,0.0], [-1, 0, 0, 0], [-1, 0, 1, 0], [ 9E+9,9E+9, 9E9, 9E9, 9E9, 9E9]];
CONST robtarget p248:= [[187.0,42.0,-10.0], [-1, 0, 0, 0], [-1, 0, 1, 0], [ 9E+9,9E+9, 9E9, 9E9, 9E9, 9E9]];
CONST robtarget p249:= [[189.0,43.0,0.0], [-1, 0, 0, 0], [-1, 0, 1, 0], [ 9E+9,9E+9, 9E9, 9E9, 9E9, 9E9]];
CONST robtarget p250:= [[189.0,43.0,0.0], [-1, 0, 0, 0], [-1, 0, 1, 0], [ 9E+9,9E+9, 9E9, 9E9, 9E9, 9E9]];
CONST robtarget p251:= [[175.0,43.0,0.0], [-1, 0, 0, 0], [-1, 0, 1, 0], [ 9E+9,9E+9, 9E9, 9E9, 9E9, 9E9]];
CONST robtarget p252:= [[175.0,43.0,-10.0], [-1, 0, 0, 0], [-1, 0, 1, 0], [ 9E+9,9E+9, 9E9, 9E9, 9E9, 9E9]];
CONST robtarget p253:= [[127.0,43.0,0.0], [-1, 0, 0, 0], [-1, 0, 1, 0], [ 9E+9,9E+9, 9E9, 9E9, 9E9, 9E9]];
CONST robtarget p254:= [[127.0,43.0,0.0], [-1, 0, 0, 0], [-1, 0, 1, 0], [ 9E+9,9E+9, 9E9, 9E9, 9E9, 9E9]];
CONST robtarget p255:= [[118.0,43.0,0.0], [-1, 0, 0, 0], [-1, 0, 1, 0], [ 9E+9,9E+9, 9E9, 9E9, 9E9, 9E9]];
CONST robtarget p256:= [[118.0,43.0,-10.0], [-1, 0, 0, 0], [-1, 0, 1, 0], [ 9E+9,9E+9, 9E9, 9E9, 9E9, 9E9]];
CONST robtarget p257:= [[118.0,44.0,0.0], [-1, 0, 0, 0], [-1, 0, 1, 0], [ 9E+9,9E+9, 9E9, 9E9, 9E9, 9E9]];
CONST robtarget p258:= [[118.0,44.0,0.0], [-1, 0, 0, 0], [-1, 0, 1, 0], [ 9E+9,9E+9, 9E9, 9E9, 9E9, 9E9]];
CONST robtarget p259:= [[126.0,44.0,0.0], [-1, 0, 0, 0], [-1, 0, 1, 0], [ 9E+9,9E+9, 9E9, 9E9, 9E9, 9E9]];
CONST robtarget p260:= [[126.0,44.0,-10.0], [-1, 0, 0, 0], [-1, 0, 1, 0], [ 9E+9,9E+9, 9E9, 9E9, 9E9, 9E9]];
CONST robtarget p261:= [[175.0,44.0,0.0], [-1, 0, 0, 0], [-1, 0, 1, 0], [ 9E+9,9E+9, 9E9, 9E9, 9E9, 9E9]];
CONST robtarget p262:= [[175.0,44.0,0.0], [-1, 0, 0, 0], [-1, 0, 1, 0], [ 9E+9,9E+9, 9E9, 9E9, 9E9, 9E9]];
CONST robtarget p263:= [[190.0,44.0,0.0], [-1, 0, 0, 0], [-1, 0, 1, 0], [ 9E+9,9E+9, 9E9, 9E9, 9E9, 9E9]];
CONST robtarget p264:= [[190.0,44.0,-10.0], [-1, 0, 0, 0], [-1, 0, 1, 0], [ 9E+9,9E+9, 9E9, 9E9, 9E9, 9E9]];
CONST robtarget p265:= [[191.0,45.0,0.0], [-1, 0, 0, 0], [-1, 0, 1, 0], [ 9E+9,9E+9, 9E9, 9E9, 9E9, 9E9]];
CONST robtarget p266:= [[191.0,45.0,0.0], [-1, 0, 0, 0], [-1, 0, 1, 0], [ 9E+9,9E+9, 9E9, 9E9, 9E9, 9E9]];
CONST robtarget p267:= [[175.0,45.0,0.0], [-1, 0, 0, 0], [-1, 0, 1, 0], [ 9E+9,9E+9, 9E9, 9E9, 9E9, 9E9]];
CONST robtarget p268:= [[175.0,45.0,-10.0], [-1, 0, 0, 0], [-1, 0, 1, 0], [ 9E+9,9E+9, 9E9, 9E9, 9E9, 9E9]];
CONST robtarget p269:= [[125.0,45.0,0.0], [-1, 0, 0, 0], [-1, 0, 1, 0], [ 9E+9,9E+9, 9E9, 9E9, 9E9, 9E9]];
CONST robtarget p270:= [[125.0,45.0,0.0], [-1, 0, 0, 0], [-1, 0, 1, 0], [ 9E+9,9E+9, 9E9, 9E9, 9E9, 9E9]];
CONST robtarget p271:= [[119.0,45.0,0.0], [-1, 0, 0, 0], [-1, 0, 1, 0], [ 9E+9,9E+9, 9E9, 9E9, 9E9, 9E9]];
CONST robtarget p272:= [[119.0,45.0,-10.0], [-1, 0, 0, 0], [-1, 0, 1, 0], [ 9E+9,9E+9, 9E9, 9E9, 9E9, 9E9]];
CONST robtarget p273:= [[97.0,46.0,0.0], [-1, 0, 0, 0], [-1, 0, 1, 0], [ 9E+9,9E+9, 9E9, 9E9, 9E9, 9E9]];
CONST robtarget p274:= [[97.0,46.0,0.0], [-1, 0, 0, 0], [-1, 0, 1, 0], [ 9E+9,9E+9, 9E9, 9E9, 9E9, 9E9]];
CONST robtarget p275:= [[108.0,46.0,0.0], [-1, 0, 0, 0], [-1, 0, 1, 0], [ 9E+9,9E+9, 9E9, 9E9, 9E9, 9E9]];
CONST robtarget p276:= [[108.0,46.0,-10.0], [-1, 0, 0, 0], [-1, 0, 1, 0], [ 9E+9,9E+9, 9E9, 9E9, 9E9, 9E9]];
CONST robtarget p277:= [[120.0,46.0,0.0], [-1, 0, 0, 0], [-1, 0, 1, 0], [ 9E+9,9E+9, 9E9, 9E9, 9E9, 9E9]];
CONST robtarget p278:= [[120.0,46.0,0.0], [-1, 0, 0, 0], [-1, 0, 1, 0], [ 9E+9,9E+9, 9E9, 9E9, 9E9, 9E9]];
CONST robtarget p279:= [[125.0,46.0,0.0], [-1, 0, 0, 0], [-1, 0, 1, 0], [ 9E+9,9E+9, 9E9, 9E9, 9E9, 9E9]];
CONST robtarget p280:= [[125.0,46.0,-10.0], [-1, 0, 0, 0], [-1, 0, 1, 0], [ 9E+9,9E+9, 9E9, 9E9, 9E9, 9E9]];
CONST robtarget p281:= [[176.0,46.0,0.0], [-1, 0, 0, 0], [-1, 0, 1, 0], [ 9E+9,9E+9, 9E9, 9E9, 9E9, 9E9]];
CONST robtarget p282:= [[176.0,46.0,0.0], [-1, 0, 0, 0], [-1, 0, 1, 0], [ 9E+9,9E+9, 9E9, 9E9, 9E9, 9E9]];
CONST robtarget p283:= [[192.0,46.0,0.0], [-1, 0, 0, 0], [-1, 0, 1, 0], [ 9E+9,9E+9, 9E9, 9E9, 9E9, 9E9]];
CONST robtarget p284:= [[192.0,46.0,-10.0], [-1, 0, 0, 0], [-1, 0, 1, 0], [ 9E+9,9E+9, 9E9, 9E9, 9E9, 9E9]];
CONST robtarget p285:= [[192.0,47.0,0.0], [-1, 0, 0, 0], [-1, 0, 1, 0], [ 9E+9,9E+9, 9E9, 9E9, 9E9, 9E9]];
CONST robtarget p286:= [[192.0,47.0,0.0], [-1, 0, 0, 0], [-1, 0, 1, 0], [ 9E+9,9E+9, 9E9, 9E9, 9E9, 9E9]];
CONST robtarget p287:= [[176.0,47.0,0.0], [-1, 0, 0, 0], [-1, 0, 1, 0], [ 9E+9,9E+9, 9E9, 9E9, 9E9, 9E9]];
CONST robtarget p288:= [[176.0,47.0,-10.0], [-1, 0, 0, 0], [-1, 0, 1, 0], [ 9E+9,9E+9, 9E9, 9E9, 9E9, 9E9]];
CONST robtarget p289:= [[123.0,47.0,0.0], [-1, 0, 0, 0], [-1, 0, 1, 0], [ 9E+9,9E+9, 9E9, 9E9, 9E9, 9E9]];
CONST robtarget p290:= [[123.0,47.0,0.0], [-1, 0, 0, 0], [-1, 0, 1, 0], [ 9E+9,9E+9, 9E9, 9E9, 9E9, 9E9]];
CONST robtarget p291:= [[122.0,47.0,0.0], [-1, 0, 0, 0], [-1, 0, 1, 0], [ 9E+9,9E+9, 9E9, 9E9, 9E9, 9E9]];
CONST robtarget p292:= [[122.0,47.0,-10.0], [-1, 0, 0, 0], [-1, 0, 1, 0], [ 9E+9,9E+9, 9E9, 9E9, 9E9, 9E9]];
CONST robtarget p293:= [[111.0,47.0,0.0], [-1, 0, 0, 0], [-1, 0, 1, 0], [ 9E+9,9E+9, 9E9, 9E9, 9E9, 9E9]];
CONST robtarget p294:= [[111.0,47.0,0.0], [-1, 0, 0, 0], [-1, 0, 1, 0], [ 9E+9,9E+9, 9E9, 9E9, 9E9, 9E9]];
CONST robtarget p295:= [[95.0,47.0,0.0], [-1, 0, 0, 0], [-1, 0, 1, 0], [ 9E+9,9E+9, 9E9, 9E9, 9E9, 9E9]];
CONST robtarget p296:= [[95.0,47.0,-10.0], [-1, 0, 0, 0], [-1, 0, 1, 0], [ 9E+9,9E+9, 9E9, 9E9, 9E9, 9E9]];
CONST robtarget p297:= [[93.0,48.0,0.0], [-1, 0, 0, 0], [-1, 0, 1, 0], [ 9E+9,9E+9, 9E9, 9E9, 9E9, 9E9]];
CONST robtarget p298:= [[93.0,48.0,0.0], [-1, 0, 0, 0], [-1, 0, 1, 0], [ 9E+9,9E+9, 9E9, 9E9, 9E9, 9E9]];
CONST robtarget p299:= [[112.0,48.0,0.0], [-1, 0, 0, 0], [-1, 0, 1, 0], [ 9E+9,9E+9, 9E9, 9E9, 9E9, 9E9]];
CONST robtarget p300:= [[112.0,48.0,-10.0], [-1, 0, 0, 0], [-1, 0, 1, 0], [ 9E+9,9E+9, 9E9, 9E9, 9E9, 9E9]];
CONST robtarget p301:= [[178.0,48.0,0.0], [-1, 0, 0, 0], [-1, 0, 1, 0], [ 9E+9,9E+9, 9E9, 9E9, 9E9, 9E9]];
CONST robtarget p302:= [[178.0,48.0,0.0], [-1, 0, 0, 0], [-1, 0, 1, 0], [ 9E+9,9E+9, 9E9, 9E9, 9E9, 9E9]];
CONST robtarget p303:= [[193.0,48.0,0.0], [-1, 0, 0, 0], [-1, 0, 1, 0], [ 9E+9,9E+9, 9E9, 9E9, 9E9, 9E9]];
CONST robtarget p304:= [[193.0,48.0,-10.0], [-1, 0, 0, 0], [-1, 0, 1, 0], [ 9E+9,9E+9, 9E9, 9E9, 9E9, 9E9]];
CONST robtarget p305:= [[193.0,49.0,0.0], [-1, 0, 0, 0], [-1, 0, 1, 0], [ 9E+9,9E+9, 9E9, 9E9, 9E9, 9E9]];
CONST robtarget p306:= [[193.0,49.0,0.0], [-1, 0, 0, 0], [-1, 0, 1, 0], [ 9E+9,9E+9, 9E9, 9E9, 9E9, 9E9]];
CONST robtarget p307:= [[181.0,49.0,0.0], [-1, 0, 0, 0], [-1, 0, 1, 0], [ 9E+9,9E+9, 9E9, 9E9, 9E9, 9E9]];
CONST robtarget p308:= [[181.0,49.0,-10.0], [-1, 0, 0, 0], [-1, 0, 1, 0], [ 9E+9,9E+9, 9E9, 9E9, 9E9, 9E9]];
CONST robtarget p309:= [[113.0,49.0,0.0], [-1, 0, 0, 0], [-1, 0, 1, 0], [ 9E+9,9E+9, 9E9, 9E9, 9E9, 9E9]];
CONST robtarget p310:= [[113.0,49.0,0.0], [-1, 0, 0, 0], [-1, 0, 1, 0], [ 9E+9,9E+9, 9E9, 9E9, 9E9, 9E9]];
CONST robtarget p311:= [[92.0,49.0,0.0], [-1, 0, 0, 0], [-1, 0, 1, 0], [ 9E+9,9E+9, 9E9, 9E9, 9E9, 9E9]];
CONST robtarget p312:= [[92.0,49.0,-10.0], [-1, 0, 0, 0], [-1, 0, 1, 0], [ 9E+9,9E+9, 9E9, 9E9, 9E9, 9E9]];
CONST robtarget p313:= [[91.0,50.0,0.0], [-1, 0, 0, 0], [-1, 0, 1, 0], [ 9E+9,9E+9, 9E9, 9E9, 9E9, 9E9]];
CONST robtarget p314:= [[91.0,50.0,0.0], [-1, 0, 0, 0], [-1, 0, 1, 0], [ 9E+9,9E+9, 9E9, 9E9, 9E9, 9E9]];
CONST robtarget p315:= [[114.0,50.0,0.0], [-1, 0, 0, 0], [-1, 0, 1, 0], [ 9E+9,9E+9, 9E9, 9E9, 9E9, 9E9]];
CONST robtarget p316:= [[114.0,50.0,-10.0], [-1, 0, 0, 0], [-1, 0, 1, 0], [ 9E+9,9E+9, 9E9, 9E9, 9E9, 9E9]];
CONST robtarget p317:= [[185.0,50.0,0.0], [-1, 0, 0, 0], [-1, 0, 1, 0], [ 9E+9,9E+9, 9E9, 9E9, 9E9, 9E9]];
CONST robtarget p318:= [[185.0,50.0,0.0], [-1, 0, 0, 0], [-1, 0, 1, 0], [ 9E+9,9E+9, 9E9, 9E9, 9E9, 9E9]];
CONST robtarget p319:= [[193.0,50.0,0.0], [-1, 0, 0, 0], [-1, 0, 1, 0], [ 9E+9,9E+9, 9E9, 9E9, 9E9, 9E9]];
CONST robtarget p320:= [[193.0,50.0,-10.0], [-1, 0, 0, 0], [-1, 0, 1, 0], [ 9E+9,9E+9, 9E9, 9E9, 9E9, 9E9]];
CONST robtarget p321:= [[193.0,51.0,0.0], [-1, 0, 0, 0], [-1, 0, 1, 0], [ 9E+9,9E+9, 9E9, 9E9, 9E9, 9E9]];
CONST robtarget p322:= [[193.0,51.0,0.0], [-1, 0, 0, 0], [-1, 0, 1, 0], [ 9E+9,9E+9, 9E9, 9E9, 9E9, 9E9]];
CONST robtarget p323:= [[185.0,51.0,0.0], [-1, 0, 0, 0], [-1, 0, 1, 0], [ 9E+9,9E+9, 9E9, 9E9, 9E9, 9E9]];
CONST robtarget p324:= [[185.0,51.0,-10.0], [-1, 0, 0, 0], [-1, 0, 1, 0], [ 9E+9,9E+9, 9E9, 9E9, 9E9, 9E9]];
CONST robtarget p325:= [[115.0,51.0,0.0], [-1, 0, 0, 0], [-1, 0, 1, 0], [ 9E+9,9E+9, 9E9, 9E9, 9E9, 9E9]];
CONST robtarget p326:= [[115.0,51.0,0.0], [-1, 0, 0, 0], [-1, 0, 1, 0], [ 9E+9,9E+9, 9E9, 9E9, 9E9, 9E9]];
CONST robtarget p327:= [[91.0,51.0,0.0], [-1, 0, 0, 0], [-1, 0, 1, 0], [ 9E+9,9E+9, 9E9, 9E9, 9E9, 9E9]];
CONST robtarget p328:= [[91.0,51.0,-10.0], [-1, 0, 0, 0], [-1, 0, 1, 0], [ 9E+9,9E+9, 9E9, 9E9, 9E9, 9E9]];
CONST robtarget p329:= [[90.0,52.0,0.0], [-1, 0, 0, 0], [-1, 0, 1, 0], [ 9E+9,9E+9, 9E9, 9E9, 9E9, 9E9]];
CONST robtarget p330:= [[90.0,52.0,0.0], [-1, 0, 0, 0], [-1, 0, 1, 0], [ 9E+9,9E+9, 9E9, 9E9, 9E9, 9E9]];
CONST robtarget p331:= [[115.0,52.0,0.0], [-1, 0, 0, 0], [-1, 0, 1, 0], [ 9E+9,9E+9, 9E9, 9E9, 9E9, 9E9]];
CONST robtarget p332:= [[115.0,52.0,-10.0], [-1, 0, 0, 0], [-1, 0, 1, 0], [ 9E+9,9E+9, 9E9, 9E9, 9E9, 9E9]];
CONST robtarget p333:= [[185.0,52.0,0.0], [-1, 0, 0, 0], [-1, 0, 1, 0], [ 9E+9,9E+9, 9E9, 9E9, 9E9, 9E9]];
CONST robtarget p334:= [[185.0,52.0,0.0], [-1, 0, 0, 0], [-1, 0, 1, 0], [ 9E+9,9E+9, 9E9, 9E9, 9E9, 9E9]];
CONST robtarget p335:= [[193.0,52.0,0.0], [-1, 0, 0, 0], [-1, 0, 1, 0], [ 9E+9,9E+9, 9E9, 9E9, 9E9, 9E9]];
CONST robtarget p336:= [[193.0,52.0,-10.0], [-1, 0, 0, 0], [-1, 0, 1, 0], [ 9E+9,9E+9, 9E9, 9E9, 9E9, 9E9]];
CONST robtarget p337:= [[193.0,53.0,0.0], [-1, 0, 0, 0], [-1, 0, 1, 0], [ 9E+9,9E+9, 9E9, 9E9, 9E9, 9E9]];
CONST robtarget p338:= [[193.0,53.0,0.0], [-1, 0, 0, 0], [-1, 0, 1, 0], [ 9E+9,9E+9, 9E9, 9E9, 9E9, 9E9]];
CONST robtarget p339:= [[185.0,53.0,0.0], [-1, 0, 0, 0], [-1, 0, 1, 0], [ 9E+9,9E+9, 9E9, 9E9, 9E9, 9E9]];
CONST robtarget p340:= [[185.0,53.0,-10.0], [-1, 0, 0, 0], [-1, 0, 1, 0], [ 9E+9,9E+9, 9E9, 9E9, 9E9, 9E9]];
CONST robtarget p341:= [[115.0,53.0,0.0], [-1, 0, 0, 0], [-1, 0, 1, 0], [ 9E+9,9E+9, 9E9, 9E9, 9E9, 9E9]];
CONST robtarget p342:= [[115.0,53.0,0.0], [-1, 0, 0, 0], [-1, 0, 1, 0], [ 9E+9,9E+9, 9E9, 9E9, 9E9, 9E9]];
CONST robtarget p343:= [[90.0,53.0,0.0], [-1, 0, 0, 0], [-1, 0, 1, 0], [ 9E+9,9E+9, 9E9, 9E9, 9E9, 9E9]];
CONST robtarget p344:= [[90.0,53.0,-10.0], [-1, 0, 0, 0], [-1, 0, 1, 0], [ 9E+9,9E+9, 9E9, 9E9, 9E9, 9E9]];
CONST robtarget p345:= [[90.0,54.0,0.0], [-1, 0, 0, 0], [-1, 0, 1, 0], [ 9E+9,9E+9, 9E9, 9E9, 9E9, 9E9]];
CONST robtarget p346:= [[90.0,54.0,0.0], [-1, 0, 0, 0], [-1, 0, 1, 0], [ 9E+9,9E+9, 9E9, 9E9, 9E9, 9E9]];
CONST robtarget p347:= [[98.0,54.0,0.0], [-1, 0, 0, 0], [-1, 0, 1, 0], [ 9E+9,9E+9, 9E9, 9E9, 9E9, 9E9]];
CONST robtarget p348:= [[98.0,54.0,-10.0], [-1, 0, 0, 0], [-1, 0, 1, 0], [ 9E+9,9E+9, 9E9, 9E9, 9E9, 9E9]];
CONST robtarget p349:= [[107.0,54.0,0.0], [-1, 0, 0, 0], [-1, 0, 1, 0], [ 9E+9,9E+9, 9E9, 9E9, 9E9, 9E9]];
CONST robtarget p350:= [[107.0,54.0,0.0], [-1, 0, 0, 0], [-1, 0, 1, 0], [ 9E+9,9E+9, 9E9, 9E9, 9E9, 9E9]];
CONST robtarget p351:= [[116.0,54.0,0.0], [-1, 0, 0, 0], [-1, 0, 1, 0], [ 9E+9,9E+9, 9E9, 9E9, 9E9, 9E9]];
CONST robtarget p352:= [[116.0,54.0,-10.0], [-1, 0, 0, 0], [-1, 0, 1, 0], [ 9E+9,9E+9, 9E9, 9E9, 9E9, 9E9]];
CONST robtarget p353:= [[185.0,54.0,0.0], [-1, 0, 0, 0], [-1, 0, 1, 0], [ 9E+9,9E+9, 9E9, 9E9, 9E9, 9E9]];
CONST robtarget p354:= [[185.0,54.0,0.0], [-1, 0, 0, 0], [-1, 0, 1, 0], [ 9E+9,9E+9, 9E9, 9E9, 9E9, 9E9]];
CONST robtarget p355:= [[193.0,54.0,0.0], [-1, 0, 0, 0], [-1, 0, 1, 0], [ 9E+9,9E+9, 9E9, 9E9, 9E9, 9E9]];
CONST robtarget p356:= [[193.0,54.0,-10.0], [-1, 0, 0, 0], [-1, 0, 1, 0], [ 9E+9,9E+9, 9E9, 9E9, 9E9, 9E9]];
CONST robtarget p357:= [[193.0,55.0,0.0], [-1, 0, 0, 0], [-1, 0, 1, 0], [ 9E+9,9E+9, 9E9, 9E9, 9E9, 9E9]];
CONST robtarget p358:= [[193.0,55.0,0.0], [-1, 0, 0, 0], [-1, 0, 1, 0], [ 9E+9,9E+9, 9E9, 9E9, 9E9, 9E9]];
CONST robtarget p359:= [[180.0,55.0,0.0], [-1, 0, 0, 0], [-1, 0, 1, 0], [ 9E+9,9E+9, 9E9, 9E9, 9E9, 9E9]];
CONST robtarget p360:= [[180.0,55.0,-10.0], [-1, 0, 0, 0], [-1, 0, 1, 0], [ 9E+9,9E+9, 9E9, 9E9, 9E9, 9E9]];
CONST robtarget p361:= [[116.0,55.0,0.0], [-1, 0, 0, 0], [-1, 0, 1, 0], [ 9E+9,9E+9, 9E9, 9E9, 9E9, 9E9]];
CONST robtarget p362:= [[116.0,55.0,0.0], [-1, 0, 0, 0], [-1, 0, 1, 0], [ 9E+9,9E+9, 9E9, 9E9, 9E9, 9E9]];
CONST robtarget p363:= [[108.0,55.0,0.0], [-1, 0, 0, 0], [-1, 0, 1, 0], [ 9E+9,9E+9, 9E9, 9E9, 9E9, 9E9]];
CONST robtarget p364:= [[108.0,55.0,-10.0], [-1, 0, 0, 0], [-1, 0, 1, 0], [ 9E+9,9E+9, 9E9, 9E9, 9E9, 9E9]];
CONST robtarget p365:= [[98.0,55.0,0.0], [-1, 0, 0, 0], [-1, 0, 1, 0], [ 9E+9,9E+9, 9E9, 9E9, 9E9, 9E9]];
CONST robtarget p366:= [[98.0,55.0,0.0], [-1, 0, 0, 0], [-1, 0, 1, 0], [ 9E+9,9E+9, 9E9, 9E9, 9E9, 9E9]];
CONST robtarget p367:= [[90.0,55.0,0.0], [-1, 0, 0, 0], [-1, 0, 1, 0], [ 9E+9,9E+9, 9E9, 9E9, 9E9, 9E9]];
CONST robtarget p368:= [[90.0,55.0,-10.0], [-1, 0, 0, 0], [-1, 0, 1, 0], [ 9E+9,9E+9, 9E9, 9E9, 9E9, 9E9]];
CONST robtarget p369:= [[71.0,56.0,0.0], [-1, 0, 0, 0], [-1, 0, 1, 0], [ 9E+9,9E+9, 9E9, 9E9, 9E9, 9E9]];
CONST robtarget p370:= [[71.0,56.0,0.0], [-1, 0, 0, 0], [-1, 0, 1, 0], [ 9E+9,9E+9, 9E9, 9E9, 9E9, 9E9]];
CONST robtarget p371:= [[76.0,56.0,0.0], [-1, 0, 0, 0], [-1, 0, 1, 0], [ 9E+9,9E+9, 9E9, 9E9, 9E9, 9E9]];
CONST robtarget p372:= [[76.0,56.0,-10.0], [-1, 0, 0, 0], [-1, 0, 1, 0], [ 9E+9,9E+9, 9E9, 9E9, 9E9, 9E9]];
CONST robtarget p373:= [[89.0,56.0,0.0], [-1, 0, 0, 0], [-1, 0, 1, 0], [ 9E+9,9E+9, 9E9, 9E9, 9E9, 9E9]];
CONST robtarget p374:= [[89.0,56.0,0.0], [-1, 0, 0, 0], [-1, 0, 1, 0], [ 9E+9,9E+9, 9E9, 9E9, 9E9, 9E9]];
CONST robtarget p375:= [[97.0,56.0,0.0], [-1, 0, 0, 0], [-1, 0, 1, 0], [ 9E+9,9E+9, 9E9, 9E9, 9E9, 9E9]];
CONST robtarget p376:= [[97.0,56.0,-10.0], [-1, 0, 0, 0], [-1, 0, 1, 0], [ 9E+9,9E+9, 9E9, 9E9, 9E9, 9E9]];
CONST robtarget p377:= [[108.0,56.0,0.0], [-1, 0, 0, 0], [-1, 0, 1, 0], [ 9E+9,9E+9, 9E9, 9E9, 9E9, 9E9]];
CONST robtarget p378:= [[108.0,56.0,0.0], [-1, 0, 0, 0], [-1, 0, 1, 0], [ 9E+9,9E+9, 9E9, 9E9, 9E9, 9E9]];
CONST robtarget p379:= [[116.0,56.0,0.0], [-1, 0, 0, 0], [-1, 0, 1, 0], [ 9E+9,9E+9, 9E9, 9E9, 9E9, 9E9]];
CONST robtarget p380:= [[116.0,56.0,-10.0], [-1, 0, 0, 0], [-1, 0, 1, 0], [ 9E+9,9E+9, 9E9, 9E9, 9E9, 9E9]];
CONST robtarget p381:= [[129.0,56.0,0.0], [-1, 0, 0, 0], [-1, 0, 1, 0], [ 9E+9,9E+9, 9E9, 9E9, 9E9, 9E9]];
CONST robtarget p382:= [[129.0,56.0,0.0], [-1, 0, 0, 0], [-1, 0, 1, 0], [ 9E+9,9E+9, 9E9, 9E9, 9E9, 9E9]];
CONST robtarget p383:= [[135.0,56.0,0.0], [-1, 0, 0, 0], [-1, 0, 1, 0], [ 9E+9,9E+9, 9E9, 9E9, 9E9, 9E9]];
CONST robtarget p384:= [[135.0,56.0,-10.0], [-1, 0, 0, 0], [-1, 0, 1, 0], [ 9E+9,9E+9, 9E9, 9E9, 9E9, 9E9]];
CONST robtarget p385:= [[177.0,56.0,0.0], [-1, 0, 0, 0], [-1, 0, 1, 0], [ 9E+9,9E+9, 9E9, 9E9, 9E9, 9E9]];
CONST robtarget p386:= [[177.0,56.0,0.0], [-1, 0, 0, 0], [-1, 0, 1, 0], [ 9E+9,9E+9, 9E9, 9E9, 9E9, 9E9]];
CONST robtarget p387:= [[193.0,56.0,0.0], [-1, 0, 0, 0], [-1, 0, 1, 0], [ 9E+9,9E+9, 9E9, 9E9, 9E9, 9E9]];
CONST robtarget p388:= [[193.0,56.0,-10.0], [-1, 0, 0, 0], [-1, 0, 1, 0], [ 9E+9,9E+9, 9E9, 9E9, 9E9, 9E9]];
CONST robtarget p389:= [[192.0,57.0,0.0], [-1, 0, 0, 0], [-1, 0, 1, 0], [ 9E+9,9E+9, 9E9, 9E9, 9E9, 9E9]];
CONST robtarget p390:= [[192.0,57.0,0.0], [-1, 0, 0, 0], [-1, 0, 1, 0], [ 9E+9,9E+9, 9E9, 9E9, 9E9, 9E9]];
CONST robtarget p391:= [[177.0,57.0,0.0], [-1, 0, 0, 0], [-1, 0, 1, 0], [ 9E+9,9E+9, 9E9, 9E9, 9E9, 9E9]];
CONST robtarget p392:= [[177.0,57.0,-10.0], [-1, 0, 0, 0], [-1, 0, 1, 0], [ 9E+9,9E+9, 9E9, 9E9, 9E9, 9E9]];
CONST robtarget p393:= [[137.0,57.0,0.0], [-1, 0, 0, 0], [-1, 0, 1, 0], [ 9E+9,9E+9, 9E9, 9E9, 9E9, 9E9]];
CONST robtarget p394:= [[137.0,57.0,0.0], [-1, 0, 0, 0], [-1, 0, 1, 0], [ 9E+9,9E+9, 9E9, 9E9, 9E9, 9E9]];
CONST robtarget p395:= [[127.0,57.0,0.0], [-1, 0, 0, 0], [-1, 0, 1, 0], [ 9E+9,9E+9, 9E9, 9E9, 9E9, 9E9]];
CONST robtarget p396:= [[127.0,57.0,-10.0], [-1, 0, 0, 0], [-1, 0, 1, 0], [ 9E+9,9E+9, 9E9, 9E9, 9E9, 9E9]];
CONST robtarget p397:= [[116.0,57.0,0.0], [-1, 0, 0, 0], [-1, 0, 1, 0], [ 9E+9,9E+9, 9E9, 9E9, 9E9, 9E9]];
CONST robtarget p398:= [[116.0,57.0,0.0], [-1, 0, 0, 0], [-1, 0, 1, 0], [ 9E+9,9E+9, 9E9, 9E9, 9E9, 9E9]];
CONST robtarget p399:= [[108.0,57.0,0.0], [-1, 0, 0, 0], [-1, 0, 1, 0], [ 9E+9,9E+9, 9E9, 9E9, 9E9, 9E9]];
CONST robtarget p400:= [[108.0,57.0,-10.0], [-1, 0, 0, 0], [-1, 0, 1, 0], [ 9E+9,9E+9, 9E9, 9E9, 9E9, 9E9]];
CONST robtarget p401:= [[97.0,57.0,0.0], [-1, 0, 0, 0], [-1, 0, 1, 0], [ 9E+9,9E+9, 9E9, 9E9, 9E9, 9E9]];
CONST robtarget p402:= [[97.0,57.0,0.0], [-1, 0, 0, 0], [-1, 0, 1, 0], [ 9E+9,9E+9, 9E9, 9E9, 9E9, 9E9]];
CONST robtarget p403:= [[89.0,57.0,0.0], [-1, 0, 0, 0], [-1, 0, 1, 0], [ 9E+9,9E+9, 9E9, 9E9, 9E9, 9E9]];
CONST robtarget p404:= [[89.0,57.0,-10.0], [-1, 0, 0, 0], [-1, 0, 1, 0], [ 9E+9,9E+9, 9E9, 9E9, 9E9, 9E9]];
CONST robtarget p405:= [[78.0,57.0,0.0], [-1, 0, 0, 0], [-1, 0, 1, 0], [ 9E+9,9E+9, 9E9, 9E9, 9E9, 9E9]];
CONST robtarget p406:= [[78.0,57.0,0.0], [-1, 0, 0, 0], [-1, 0, 1, 0], [ 9E+9,9E+9, 9E9, 9E9, 9E9, 9E9]];
CONST robtarget p407:= [[69.0,57.0,0.0], [-1, 0, 0, 0], [-1, 0, 1, 0], [ 9E+9,9E+9, 9E9, 9E9, 9E9, 9E9]];
CONST robtarget p408:= [[69.0,57.0,-10.0], [-1, 0, 0, 0], [-1, 0, 1, 0], [ 9E+9,9E+9, 9E9, 9E9, 9E9, 9E9]];
CONST robtarget p409:= [[67.0,58.0,0.0], [-1, 0, 0, 0], [-1, 0, 1, 0], [ 9E+9,9E+9, 9E9, 9E9, 9E9, 9E9]];
CONST robtarget p410:= [[67.0,58.0,0.0], [-1, 0, 0, 0], [-1, 0, 1, 0], [ 9E+9,9E+9, 9E9, 9E9, 9E9, 9E9]];
CONST robtarget p411:= [[80.0,58.0,0.0], [-1, 0, 0, 0], [-1, 0, 1, 0], [ 9E+9,9E+9, 9E9, 9E9, 9E9, 9E9]];
CONST robtarget p412:= [[80.0,58.0,-10.0], [-1, 0, 0, 0], [-1, 0, 1, 0], [ 9E+9,9E+9, 9E9, 9E9, 9E9, 9E9]];
CONST robtarget p413:= [[88.0,58.0,0.0], [-1, 0, 0, 0], [-1, 0, 1, 0], [ 9E+9,9E+9, 9E9, 9E9, 9E9, 9E9]];
CONST robtarget p414:= [[88.0,58.0,0.0], [-1, 0, 0, 0], [-1, 0, 1, 0], [ 9E+9,9E+9, 9E9, 9E9, 9E9, 9E9]];
CONST robtarget p415:= [[97.0,58.0,0.0], [-1, 0, 0, 0], [-1, 0, 1, 0], [ 9E+9,9E+9, 9E9, 9E9, 9E9, 9E9]];
CONST robtarget p416:= [[97.0,58.0,-10.0], [-1, 0, 0, 0], [-1, 0, 1, 0], [ 9E+9,9E+9, 9E9, 9E9, 9E9, 9E9]];
CONST robtarget p417:= [[108.0,58.0,0.0], [-1, 0, 0, 0], [-1, 0, 1, 0], [ 9E+9,9E+9, 9E9, 9E9, 9E9, 9E9]];
CONST robtarget p418:= [[108.0,58.0,0.0], [-1, 0, 0, 0], [-1, 0, 1, 0], [ 9E+9,9E+9, 9E9, 9E9, 9E9, 9E9]];
CONST robtarget p419:= [[117.0,58.0,0.0], [-1, 0, 0, 0], [-1, 0, 1, 0], [ 9E+9,9E+9, 9E9, 9E9, 9E9, 9E9]];
CONST robtarget p420:= [[117.0,58.0,-10.0], [-1, 0, 0, 0], [-1, 0, 1, 0], [ 9E+9,9E+9, 9E9, 9E9, 9E9, 9E9]];
CONST robtarget p421:= [[125.0,58.0,0.0], [-1, 0, 0, 0], [-1, 0, 1, 0], [ 9E+9,9E+9, 9E9, 9E9, 9E9, 9E9]];
CONST robtarget p422:= [[125.0,58.0,0.0], [-1, 0, 0, 0], [-1, 0, 1, 0], [ 9E+9,9E+9, 9E9, 9E9, 9E9, 9E9]];
CONST robtarget p423:= [[139.0,58.0,0.0], [-1, 0, 0, 0], [-1, 0, 1, 0], [ 9E+9,9E+9, 9E9, 9E9, 9E9, 9E9]];
CONST robtarget p424:= [[139.0,58.0,-10.0], [-1, 0, 0, 0], [-1, 0, 1, 0], [ 9E+9,9E+9, 9E9, 9E9, 9E9, 9E9]];
CONST robtarget p425:= [[176.0,58.0,0.0], [-1, 0, 0, 0], [-1, 0, 1, 0], [ 9E+9,9E+9, 9E9, 9E9, 9E9, 9E9]];
CONST robtarget p426:= [[176.0,58.0,0.0], [-1, 0, 0, 0], [-1, 0, 1, 0], [ 9E+9,9E+9, 9E9, 9E9, 9E9, 9E9]];
CONST robtarget p427:= [[192.0,58.0,0.0], [-1, 0, 0, 0], [-1, 0, 1, 0], [ 9E+9,9E+9, 9E9, 9E9, 9E9, 9E9]];
CONST robtarget p428:= [[192.0,58.0,-10.0], [-1, 0, 0, 0], [-1, 0, 1, 0], [ 9E+9,9E+9, 9E9, 9E9, 9E9, 9E9]];
CONST robtarget p429:= [[191.0,59.0,0.0], [-1, 0, 0, 0], [-1, 0, 1, 0], [ 9E+9,9E+9, 9E9, 9E9, 9E9, 9E9]];
CONST robtarget p430:= [[191.0,59.0,0.0], [-1, 0, 0, 0], [-1, 0, 1, 0], [ 9E+9,9E+9, 9E9, 9E9, 9E9, 9E9]];
CONST robtarget p431:= [[176.0,59.0,0.0], [-1, 0, 0, 0], [-1, 0, 1, 0], [ 9E+9,9E+9, 9E9, 9E9, 9E9, 9E9]];
CONST robtarget p432:= [[176.0,59.0,-10.0], [-1, 0, 0, 0], [-1, 0, 1, 0], [ 9E+9,9E+9, 9E9, 9E9, 9E9, 9E9]];
CONST robtarget p433:= [[140.0,59.0,0.0], [-1, 0, 0, 0], [-1, 0, 1, 0], [ 9E+9,9E+9, 9E9, 9E9, 9E9, 9E9]];
CONST robtarget p434:= [[140.0,59.0,0.0], [-1, 0, 0, 0], [-1, 0, 1, 0], [ 9E+9,9E+9, 9E9, 9E9, 9E9, 9E9]];
CONST robtarget p435:= [[124.0,59.0,0.0], [-1, 0, 0, 0], [-1, 0, 1, 0], [ 9E+9,9E+9, 9E9, 9E9, 9E9, 9E9]];
CONST robtarget p436:= [[124.0,59.0,-10.0], [-1, 0, 0, 0], [-1, 0, 1, 0], [ 9E+9,9E+9, 9E9, 9E9, 9E9, 9E9]];
CONST robtarget p437:= [[120.0,59.0,0.0], [-1, 0, 0, 0], [-1, 0, 1, 0], [ 9E+9,9E+9, 9E9, 9E9, 9E9, 9E9]];
CONST robtarget p438:= [[120.0,59.0,0.0], [-1, 0, 0, 0], [-1, 0, 1, 0], [ 9E+9,9E+9, 9E9, 9E9, 9E9, 9E9]];
CONST robtarget p439:= [[109.0,59.0,0.0], [-1, 0, 0, 0], [-1, 0, 1, 0], [ 9E+9,9E+9, 9E9, 9E9, 9E9, 9E9]];
CONST robtarget p440:= [[109.0,59.0,-10.0], [-1, 0, 0, 0], [-1, 0, 1, 0], [ 9E+9,9E+9, 9E9, 9E9, 9E9, 9E9]];
CONST robtarget p441:= [[97.0,59.0,0.0], [-1, 0, 0, 0], [-1, 0, 1, 0], [ 9E+9,9E+9, 9E9, 9E9, 9E9, 9E9]];
CONST robtarget p442:= [[97.0,59.0,0.0], [-1, 0, 0, 0], [-1, 0, 1, 0], [ 9E+9,9E+9, 9E9, 9E9, 9E9, 9E9]];
CONST robtarget p443:= [[86.0,59.0,0.0], [-1, 0, 0, 0], [-1, 0, 1, 0], [ 9E+9,9E+9, 9E9, 9E9, 9E9, 9E9]];
CONST robtarget p444:= [[86.0,59.0,-10.0], [-1, 0, 0, 0], [-1, 0, 1, 0], [ 9E+9,9E+9, 9E9, 9E9, 9E9, 9E9]];
CONST robtarget p445:= [[82.0,59.0,0.0], [-1, 0, 0, 0], [-1, 0, 1, 0], [ 9E+9,9E+9, 9E9, 9E9, 9E9, 9E9]];
CONST robtarget p446:= [[82.0,59.0,0.0], [-1, 0, 0, 0], [-1, 0, 1, 0], [ 9E+9,9E+9, 9E9, 9E9, 9E9, 9E9]];
CONST robtarget p447:= [[66.0,59.0,0.0], [-1, 0, 0, 0], [-1, 0, 1, 0], [ 9E+9,9E+9, 9E9, 9E9, 9E9, 9E9]];
CONST robtarget p448:= [[66.0,59.0,-10.0], [-1, 0, 0, 0], [-1, 0, 1, 0], [ 9E+9,9E+9, 9E9, 9E9, 9E9, 9E9]];
CONST robtarget p449:= [[65.0,60.0,0.0], [-1, 0, 0, 0], [-1, 0, 1, 0], [ 9E+9,9E+9, 9E9, 9E9, 9E9, 9E9]];
CONST robtarget p450:= [[65.0,60.0,0.0], [-1, 0, 0, 0], [-1, 0, 1, 0], [ 9E+9,9E+9, 9E9, 9E9, 9E9, 9E9]];
CONST robtarget p451:= [[97.0,60.0,0.0], [-1, 0, 0, 0], [-1, 0, 1, 0], [ 9E+9,9E+9, 9E9, 9E9, 9E9, 9E9]];
CONST robtarget p452:= [[97.0,60.0,-10.0], [-1, 0, 0, 0], [-1, 0, 1, 0], [ 9E+9,9E+9, 9E9, 9E9, 9E9, 9E9]];
CONST robtarget p453:= [[109.0,60.0,0.0], [-1, 0, 0, 0], [-1, 0, 1, 0], [ 9E+9,9E+9, 9E9, 9E9, 9E9, 9E9]];
CONST robtarget p454:= [[109.0,60.0,0.0], [-1, 0, 0, 0], [-1, 0, 1, 0], [ 9E+9,9E+9, 9E9, 9E9, 9E9, 9E9]];
CONST robtarget p455:= [[141.0,60.0,0.0], [-1, 0, 0, 0], [-1, 0, 1, 0], [ 9E+9,9E+9, 9E9, 9E9, 9E9, 9E9]];
CONST robtarget p456:= [[141.0,60.0,-10.0], [-1, 0, 0, 0], [-1, 0, 1, 0], [ 9E+9,9E+9, 9E9, 9E9, 9E9, 9E9]];
CONST robtarget p457:= [[175.0,60.0,0.0], [-1, 0, 0, 0], [-1, 0, 1, 0], [ 9E+9,9E+9, 9E9, 9E9, 9E9, 9E9]];
CONST robtarget p458:= [[175.0,60.0,0.0], [-1, 0, 0, 0], [-1, 0, 1, 0], [ 9E+9,9E+9, 9E9, 9E9, 9E9, 9E9]];
CONST robtarget p459:= [[190.0,60.0,0.0], [-1, 0, 0, 0], [-1, 0, 1, 0], [ 9E+9,9E+9, 9E9, 9E9, 9E9, 9E9]];
CONST robtarget p460:= [[190.0,60.0,-10.0], [-1, 0, 0, 0], [-1, 0, 1, 0], [ 9E+9,9E+9, 9E9, 9E9, 9E9, 9E9]];
CONST robtarget p461:= [[188.0,61.0,0.0], [-1, 0, 0, 0], [-1, 0, 1, 0], [ 9E+9,9E+9, 9E9, 9E9, 9E9, 9E9]];
CONST robtarget p462:= [[188.0,61.0,0.0], [-1, 0, 0, 0], [-1, 0, 1, 0], [ 9E+9,9E+9, 9E9, 9E9, 9E9, 9E9]];
CONST robtarget p463:= [[175.0,61.0,0.0], [-1, 0, 0, 0], [-1, 0, 1, 0], [ 9E+9,9E+9, 9E9, 9E9, 9E9, 9E9]];
CONST robtarget p464:= [[175.0,61.0,-10.0], [-1, 0, 0, 0], [-1, 0, 1, 0], [ 9E+9,9E+9, 9E9, 9E9, 9E9, 9E9]];
CONST robtarget p465:= [[142.0,61.0,0.0], [-1, 0, 0, 0], [-1, 0, 1, 0], [ 9E+9,9E+9, 9E9, 9E9, 9E9, 9E9]];
CONST robtarget p466:= [[142.0,61.0,0.0], [-1, 0, 0, 0], [-1, 0, 1, 0], [ 9E+9,9E+9, 9E9, 9E9, 9E9, 9E9]];
CONST robtarget p467:= [[109.0,61.0,0.0], [-1, 0, 0, 0], [-1, 0, 1, 0], [ 9E+9,9E+9, 9E9, 9E9, 9E9, 9E9]];
CONST robtarget p468:= [[109.0,61.0,-10.0], [-1, 0, 0, 0], [-1, 0, 1, 0], [ 9E+9,9E+9, 9E9, 9E9, 9E9, 9E9]];
CONST robtarget p469:= [[96.0,61.0,0.0], [-1, 0, 0, 0], [-1, 0, 1, 0], [ 9E+9,9E+9, 9E9, 9E9, 9E9, 9E9]];
CONST robtarget p470:= [[96.0,61.0,0.0], [-1, 0, 0, 0], [-1, 0, 1, 0], [ 9E+9,9E+9, 9E9, 9E9, 9E9, 9E9]];
CONST robtarget p471:= [[64.0,61.0,0.0], [-1, 0, 0, 0], [-1, 0, 1, 0], [ 9E+9,9E+9, 9E9, 9E9, 9E9, 9E9]];
CONST robtarget p472:= [[64.0,61.0,-10.0], [-1, 0, 0, 0], [-1, 0, 1, 0], [ 9E+9,9E+9, 9E9, 9E9, 9E9, 9E9]];
CONST robtarget p473:= [[63.0,62.0,0.0], [-1, 0, 0, 0], [-1, 0, 1, 0], [ 9E+9,9E+9, 9E9, 9E9, 9E9, 9E9]];
CONST robtarget p474:= [[63.0,62.0,0.0], [-1, 0, 0, 0], [-1, 0, 1, 0], [ 9E+9,9E+9, 9E9, 9E9, 9E9, 9E9]];
CONST robtarget p475:= [[96.0,62.0,0.0], [-1, 0, 0, 0], [-1, 0, 1, 0], [ 9E+9,9E+9, 9E9, 9E9, 9E9, 9E9]];
CONST robtarget p476:= [[96.0,62.0,-10.0], [-1, 0, 0, 0], [-1, 0, 1, 0], [ 9E+9,9E+9, 9E9, 9E9, 9E9, 9E9]];
CONST robtarget p477:= [[109.0,62.0,0.0], [-1, 0, 0, 0], [-1, 0, 1, 0], [ 9E+9,9E+9, 9E9, 9E9, 9E9, 9E9]];
CONST robtarget p478:= [[109.0,62.0,0.0], [-1, 0, 0, 0], [-1, 0, 1, 0], [ 9E+9,9E+9, 9E9, 9E9, 9E9, 9E9]];
CONST robtarget p479:= [[143.0,62.0,0.0], [-1, 0, 0, 0], [-1, 0, 1, 0], [ 9E+9,9E+9, 9E9, 9E9, 9E9, 9E9]];
CONST robtarget p480:= [[143.0,62.0,-10.0], [-1, 0, 0, 0], [-1, 0, 1, 0], [ 9E+9,9E+9, 9E9, 9E9, 9E9, 9E9]];
CONST robtarget p481:= [[174.0,62.0,0.0], [-1, 0, 0, 0], [-1, 0, 1, 0], [ 9E+9,9E+9, 9E9, 9E9, 9E9, 9E9]];
CONST robtarget p482:= [[174.0,62.0,0.0], [-1, 0, 0, 0], [-1, 0, 1, 0], [ 9E+9,9E+9, 9E9, 9E9, 9E9, 9E9]];
CONST robtarget p483:= [[186.0,62.0,0.0], [-1, 0, 0, 0], [-1, 0, 1, 0], [ 9E+9,9E+9, 9E9, 9E9, 9E9, 9E9]];
CONST robtarget p484:= [[186.0,62.0,-10.0], [-1, 0, 0, 0], [-1, 0, 1, 0], [ 9E+9,9E+9, 9E9, 9E9, 9E9, 9E9]];
CONST robtarget p485:= [[183.0,63.0,0.0], [-1, 0, 0, 0], [-1, 0, 1, 0], [ 9E+9,9E+9, 9E9, 9E9, 9E9, 9E9]];
CONST robtarget p486:= [[183.0,63.0,0.0], [-1, 0, 0, 0], [-1, 0, 1, 0], [ 9E+9,9E+9, 9E9, 9E9, 9E9, 9E9]];
CONST robtarget p487:= [[174.0,63.0,0.0], [-1, 0, 0, 0], [-1, 0, 1, 0], [ 9E+9,9E+9, 9E9, 9E9, 9E9, 9E9]];
CONST robtarget p488:= [[174.0,63.0,-10.0], [-1, 0, 0, 0], [-1, 0, 1, 0], [ 9E+9,9E+9, 9E9, 9E9, 9E9, 9E9]];
CONST robtarget p489:= [[144.0,63.0,0.0], [-1, 0, 0, 0], [-1, 0, 1, 0], [ 9E+9,9E+9, 9E9, 9E9, 9E9, 9E9]];
CONST robtarget p490:= [[144.0,63.0,0.0], [-1, 0, 0, 0], [-1, 0, 1, 0], [ 9E+9,9E+9, 9E9, 9E9, 9E9, 9E9]];
CONST robtarget p491:= [[110.0,63.0,0.0], [-1, 0, 0, 0], [-1, 0, 1, 0], [ 9E+9,9E+9, 9E9, 9E9, 9E9, 9E9]];
CONST robtarget p492:= [[110.0,63.0,-10.0], [-1, 0, 0, 0], [-1, 0, 1, 0], [ 9E+9,9E+9, 9E9, 9E9, 9E9, 9E9]];
CONST robtarget p493:= [[96.0,63.0,0.0], [-1, 0, 0, 0], [-1, 0, 1, 0], [ 9E+9,9E+9, 9E9, 9E9, 9E9, 9E9]];
CONST robtarget p494:= [[96.0,63.0,0.0], [-1, 0, 0, 0], [-1, 0, 1, 0], [ 9E+9,9E+9, 9E9, 9E9, 9E9, 9E9]];
CONST robtarget p495:= [[62.0,63.0,0.0], [-1, 0, 0, 0], [-1, 0, 1, 0], [ 9E+9,9E+9, 9E9, 9E9, 9E9, 9E9]];
CONST robtarget p496:= [[62.0,63.0,-10.0], [-1, 0, 0, 0], [-1, 0, 1, 0], [ 9E+9,9E+9, 9E9, 9E9, 9E9, 9E9]];
CONST robtarget p497:= [[61.0,64.0,0.0], [-1, 0, 0, 0], [-1, 0, 1, 0], [ 9E+9,9E+9, 9E9, 9E9, 9E9, 9E9]];
CONST robtarget p498:= [[61.0,64.0,0.0], [-1, 0, 0, 0], [-1, 0, 1, 0], [ 9E+9,9E+9, 9E9, 9E9, 9E9, 9E9]];
CONST robtarget p499:= [[72.0,64.0,0.0], [-1, 0, 0, 0], [-1, 0, 1, 0], [ 9E+9,9E+9, 9E9, 9E9, 9E9, 9E9]];
CONST robtarget p500:= [[72.0,64.0,-10.0], [-1, 0, 0, 0], [-1, 0, 1, 0], [ 9E+9,9E+9, 9E9, 9E9, 9E9, 9E9]];
CONST robtarget p501:= [[74.0,64.0,0.0], [-1, 0, 0, 0], [-1, 0, 1, 0], [ 9E+9,9E+9, 9E9, 9E9, 9E9, 9E9]];
CONST robtarget p502:= [[74.0,64.0,0.0], [-1, 0, 0, 0], [-1, 0, 1, 0], [ 9E+9,9E+9, 9E9, 9E9, 9E9, 9E9]];
CONST robtarget p503:= [[95.0,64.0,0.0], [-1, 0, 0, 0], [-1, 0, 1, 0], [ 9E+9,9E+9, 9E9, 9E9, 9E9, 9E9]];
CONST robtarget p504:= [[95.0,64.0,-10.0], [-1, 0, 0, 0], [-1, 0, 1, 0], [ 9E+9,9E+9, 9E9, 9E9, 9E9, 9E9]];
CONST robtarget p505:= [[111.0,64.0,0.0], [-1, 0, 0, 0], [-1, 0, 1, 0], [ 9E+9,9E+9, 9E9, 9E9, 9E9, 9E9]];
CONST robtarget p506:= [[111.0,64.0,0.0], [-1, 0, 0, 0], [-1, 0, 1, 0], [ 9E+9,9E+9, 9E9, 9E9, 9E9, 9E9]];
CONST robtarget p507:= [[131.0,64.0,0.0], [-1, 0, 0, 0], [-1, 0, 1, 0], [ 9E+9,9E+9, 9E9, 9E9, 9E9, 9E9]];
CONST robtarget p508:= [[131.0,64.0,-10.0], [-1, 0, 0, 0], [-1, 0, 1, 0], [ 9E+9,9E+9, 9E9, 9E9, 9E9, 9E9]];
CONST robtarget p509:= [[133.0,64.0,0.0], [-1, 0, 0, 0], [-1, 0, 1, 0], [ 9E+9,9E+9, 9E9, 9E9, 9E9, 9E9]];
CONST robtarget p510:= [[133.0,64.0,0.0], [-1, 0, 0, 0], [-1, 0, 1, 0], [ 9E+9,9E+9, 9E9, 9E9, 9E9, 9E9]];
CONST robtarget p511:= [[145.0,64.0,0.0], [-1, 0, 0, 0], [-1, 0, 1, 0], [ 9E+9,9E+9, 9E9, 9E9, 9E9, 9E9]];
CONST robtarget p512:= [[145.0,64.0,-10.0], [-1, 0, 0, 0], [-1, 0, 1, 0], [ 9E+9,9E+9, 9E9, 9E9, 9E9, 9E9]];
CONST robtarget p513:= [[173.0,64.0,0.0], [-1, 0, 0, 0], [-1, 0, 1, 0], [ 9E+9,9E+9, 9E9, 9E9, 9E9, 9E9]];
CONST robtarget p514:= [[173.0,64.0,0.0], [-1, 0, 0, 0], [-1, 0, 1, 0], [ 9E+9,9E+9, 9E9, 9E9, 9E9, 9E9]];
CONST robtarget p515:= [[182.0,64.0,0.0], [-1, 0, 0, 0], [-1, 0, 1, 0], [ 9E+9,9E+9, 9E9, 9E9, 9E9, 9E9]];
CONST robtarget p516:= [[182.0,64.0,-10.0], [-1, 0, 0, 0], [-1, 0, 1, 0], [ 9E+9,9E+9, 9E9, 9E9, 9E9, 9E9]];
CONST robtarget p517:= [[181.0,65.0,0.0], [-1, 0, 0, 0], [-1, 0, 1, 0], [ 9E+9,9E+9, 9E9, 9E9, 9E9, 9E9]];
CONST robtarget p518:= [[181.0,65.0,0.0], [-1, 0, 0, 0], [-1, 0, 1, 0], [ 9E+9,9E+9, 9E9, 9E9, 9E9, 9E9]];
CONST robtarget p519:= [[173.0,65.0,0.0], [-1, 0, 0, 0], [-1, 0, 1, 0], [ 9E+9,9E+9, 9E9, 9E9, 9E9, 9E9]];
CONST robtarget p520:= [[173.0,65.0,-10.0], [-1, 0, 0, 0], [-1, 0, 1, 0], [ 9E+9,9E+9, 9E9, 9E9, 9E9, 9E9]];
CONST robtarget p521:= [[145.0,65.0,0.0], [-1, 0, 0, 0], [-1, 0, 1, 0], [ 9E+9,9E+9, 9E9, 9E9, 9E9, 9E9]];
CONST robtarget p522:= [[145.0,65.0,0.0], [-1, 0, 0, 0], [-1, 0, 1, 0], [ 9E+9,9E+9, 9E9, 9E9, 9E9, 9E9]];
CONST robtarget p523:= [[135.0,65.0,0.0], [-1, 0, 0, 0], [-1, 0, 1, 0], [ 9E+9,9E+9, 9E9, 9E9, 9E9, 9E9]];
CONST robtarget p524:= [[135.0,65.0,-10.0], [-1, 0, 0, 0], [-1, 0, 1, 0], [ 9E+9,9E+9, 9E9, 9E9, 9E9, 9E9]];
CONST robtarget p525:= [[129.0,65.0,0.0], [-1, 0, 0, 0], [-1, 0, 1, 0], [ 9E+9,9E+9, 9E9, 9E9, 9E9, 9E9]];
CONST robtarget p526:= [[129.0,65.0,0.0], [-1, 0, 0, 0], [-1, 0, 1, 0], [ 9E+9,9E+9, 9E9, 9E9, 9E9, 9E9]];
CONST robtarget p527:= [[113.0,65.0,0.0], [-1, 0, 0, 0], [-1, 0, 1, 0], [ 9E+9,9E+9, 9E9, 9E9, 9E9, 9E9]];
CONST robtarget p528:= [[113.0,65.0,-10.0], [-1, 0, 0, 0], [-1, 0, 1, 0], [ 9E+9,9E+9, 9E9, 9E9, 9E9, 9E9]];
CONST robtarget p529:= [[93.0,65.0,0.0], [-1, 0, 0, 0], [-1, 0, 1, 0], [ 9E+9,9E+9, 9E9, 9E9, 9E9, 9E9]];
CONST robtarget p530:= [[93.0,65.0,0.0], [-1, 0, 0, 0], [-1, 0, 1, 0], [ 9E+9,9E+9, 9E9, 9E9, 9E9, 9E9]];
CONST robtarget p531:= [[76.0,65.0,0.0], [-1, 0, 0, 0], [-1, 0, 1, 0], [ 9E+9,9E+9, 9E9, 9E9, 9E9, 9E9]];
CONST robtarget p532:= [[76.0,65.0,-10.0], [-1, 0, 0, 0], [-1, 0, 1, 0], [ 9E+9,9E+9, 9E9, 9E9, 9E9, 9E9]];
CONST robtarget p533:= [[71.0,65.0,0.0], [-1, 0, 0, 0], [-1, 0, 1, 0], [ 9E+9,9E+9, 9E9, 9E9, 9E9, 9E9]];
CONST robtarget p534:= [[71.0,65.0,0.0], [-1, 0, 0, 0], [-1, 0, 1, 0], [ 9E+9,9E+9, 9E9, 9E9, 9E9, 9E9]];
CONST robtarget p535:= [[60.0,65.0,0.0], [-1, 0, 0, 0], [-1, 0, 1, 0], [ 9E+9,9E+9, 9E9, 9E9, 9E9, 9E9]];
CONST robtarget p536:= [[60.0,65.0,-10.0], [-1, 0, 0, 0], [-1, 0, 1, 0], [ 9E+9,9E+9, 9E9, 9E9, 9E9, 9E9]];
CONST robtarget p537:= [[60.0,66.0,0.0], [-1, 0, 0, 0], [-1, 0, 1, 0], [ 9E+9,9E+9, 9E9, 9E9, 9E9, 9E9]];
CONST robtarget p538:= [[60.0,66.0,0.0], [-1, 0, 0, 0], [-1, 0, 1, 0], [ 9E+9,9E+9, 9E9, 9E9, 9E9, 9E9]];
CONST robtarget p539:= [[70.0,66.0,0.0], [-1, 0, 0, 0], [-1, 0, 1, 0], [ 9E+9,9E+9, 9E9, 9E9, 9E9, 9E9]];
CONST robtarget p540:= [[70.0,66.0,-10.0], [-1, 0, 0, 0], [-1, 0, 1, 0], [ 9E+9,9E+9, 9E9, 9E9, 9E9, 9E9]];
CONST robtarget p541:= [[78.0,66.0,0.0], [-1, 0, 0, 0], [-1, 0, 1, 0], [ 9E+9,9E+9, 9E9, 9E9, 9E9, 9E9]];
CONST robtarget p542:= [[78.0,66.0,0.0], [-1, 0, 0, 0], [-1, 0, 1, 0], [ 9E+9,9E+9, 9E9, 9E9, 9E9, 9E9]];
CONST robtarget p543:= [[90.0,66.0,0.0], [-1, 0, 0, 0], [-1, 0, 1, 0], [ 9E+9,9E+9, 9E9, 9E9, 9E9, 9E9]];
CONST robtarget p544:= [[90.0,66.0,-10.0], [-1, 0, 0, 0], [-1, 0, 1, 0], [ 9E+9,9E+9, 9E9, 9E9, 9E9, 9E9]];
CONST robtarget p545:= [[116.0,66.0,0.0], [-1, 0, 0, 0], [-1, 0, 1, 0], [ 9E+9,9E+9, 9E9, 9E9, 9E9, 9E9]];
CONST robtarget p546:= [[116.0,66.0,0.0], [-1, 0, 0, 0], [-1, 0, 1, 0], [ 9E+9,9E+9, 9E9, 9E9, 9E9, 9E9]];
CONST robtarget p547:= [[127.0,66.0,0.0], [-1, 0, 0, 0], [-1, 0, 1, 0], [ 9E+9,9E+9, 9E9, 9E9, 9E9, 9E9]];
CONST robtarget p548:= [[127.0,66.0,-10.0], [-1, 0, 0, 0], [-1, 0, 1, 0], [ 9E+9,9E+9, 9E9, 9E9, 9E9, 9E9]];
CONST robtarget p549:= [[136.0,66.0,0.0], [-1, 0, 0, 0], [-1, 0, 1, 0], [ 9E+9,9E+9, 9E9, 9E9, 9E9, 9E9]];
CONST robtarget p550:= [[136.0,66.0,0.0], [-1, 0, 0, 0], [-1, 0, 1, 0], [ 9E+9,9E+9, 9E9, 9E9, 9E9, 9E9]];
CONST robtarget p551:= [[146.0,66.0,0.0], [-1, 0, 0, 0], [-1, 0, 1, 0], [ 9E+9,9E+9, 9E9, 9E9, 9E9, 9E9]];
CONST robtarget p552:= [[146.0,66.0,-10.0], [-1, 0, 0, 0], [-1, 0, 1, 0], [ 9E+9,9E+9, 9E9, 9E9, 9E9, 9E9]];
CONST robtarget p553:= [[173.0,66.0,0.0], [-1, 0, 0, 0], [-1, 0, 1, 0], [ 9E+9,9E+9, 9E9, 9E9, 9E9, 9E9]];
CONST robtarget p554:= [[173.0,66.0,0.0], [-1, 0, 0, 0], [-1, 0, 1, 0], [ 9E+9,9E+9, 9E9, 9E9, 9E9, 9E9]];
CONST robtarget p555:= [[182.0,66.0,0.0], [-1, 0, 0, 0], [-1, 0, 1, 0], [ 9E+9,9E+9, 9E9, 9E9, 9E9, 9E9]];
CONST robtarget p556:= [[182.0,66.0,-10.0], [-1, 0, 0, 0], [-1, 0, 1, 0], [ 9E+9,9E+9, 9E9, 9E9, 9E9, 9E9]];
CONST robtarget p557:= [[183.0,67.0,0.0], [-1, 0, 0, 0], [-1, 0, 1, 0], [ 9E+9,9E+9, 9E9, 9E9, 9E9, 9E9]];
CONST robtarget p558:= [[183.0,67.0,0.0], [-1, 0, 0, 0], [-1, 0, 1, 0], [ 9E+9,9E+9, 9E9, 9E9, 9E9, 9E9]];
CONST robtarget p559:= [[173.0,67.0,0.0], [-1, 0, 0, 0], [-1, 0, 1, 0], [ 9E+9,9E+9, 9E9, 9E9, 9E9, 9E9]];
CONST robtarget p560:= [[173.0,67.0,-10.0], [-1, 0, 0, 0], [-1, 0, 1, 0], [ 9E+9,9E+9, 9E9, 9E9, 9E9, 9E9]];
CONST robtarget p561:= [[146.0,67.0,0.0], [-1, 0, 0, 0], [-1, 0, 1, 0], [ 9E+9,9E+9, 9E9, 9E9, 9E9, 9E9]];
CONST robtarget p562:= [[146.0,67.0,0.0], [-1, 0, 0, 0], [-1, 0, 1, 0], [ 9E+9,9E+9, 9E9, 9E9, 9E9, 9E9]];
CONST robtarget p563:= [[137.0,67.0,0.0], [-1, 0, 0, 0], [-1, 0, 1, 0], [ 9E+9,9E+9, 9E9, 9E9, 9E9, 9E9]];
CONST robtarget p564:= [[137.0,67.0,-10.0], [-1, 0, 0, 0], [-1, 0, 1, 0], [ 9E+9,9E+9, 9E9, 9E9, 9E9, 9E9]];
CONST robtarget p565:= [[126.0,67.0,0.0], [-1, 0, 0, 0], [-1, 0, 1, 0], [ 9E+9,9E+9, 9E9, 9E9, 9E9, 9E9]];
CONST robtarget p566:= [[126.0,67.0,0.0], [-1, 0, 0, 0], [-1, 0, 1, 0], [ 9E+9,9E+9, 9E9, 9E9, 9E9, 9E9]];
CONST robtarget p567:= [[118.0,67.0,0.0], [-1, 0, 0, 0], [-1, 0, 1, 0], [ 9E+9,9E+9, 9E9, 9E9, 9E9, 9E9]];
CONST robtarget p568:= [[118.0,67.0,-10.0], [-1, 0, 0, 0], [-1, 0, 1, 0], [ 9E+9,9E+9, 9E9, 9E9, 9E9, 9E9]];
CONST robtarget p569:= [[88.0,67.0,0.0], [-1, 0, 0, 0], [-1, 0, 1, 0], [ 9E+9,9E+9, 9E9, 9E9, 9E9, 9E9]];
CONST robtarget p570:= [[88.0,67.0,0.0], [-1, 0, 0, 0], [-1, 0, 1, 0], [ 9E+9,9E+9, 9E9, 9E9, 9E9, 9E9]];
CONST robtarget p571:= [[79.0,67.0,0.0], [-1, 0, 0, 0], [-1, 0, 1, 0], [ 9E+9,9E+9, 9E9, 9E9, 9E9, 9E9]];
CONST robtarget p572:= [[79.0,67.0,-10.0], [-1, 0, 0, 0], [-1, 0, 1, 0], [ 9E+9,9E+9, 9E9, 9E9, 9E9, 9E9]];
CONST robtarget p573:= [[69.0,67.0,0.0], [-1, 0, 0, 0], [-1, 0, 1, 0], [ 9E+9,9E+9, 9E9, 9E9, 9E9, 9E9]];
CONST robtarget p574:= [[69.0,67.0,0.0], [-1, 0, 0, 0], [-1, 0, 1, 0], [ 9E+9,9E+9, 9E9, 9E9, 9E9, 9E9]];
CONST robtarget p575:= [[59.0,67.0,0.0], [-1, 0, 0, 0], [-1, 0, 1, 0], [ 9E+9,9E+9, 9E9, 9E9, 9E9, 9E9]];
CONST robtarget p576:= [[59.0,67.0,-10.0], [-1, 0, 0, 0], [-1, 0, 1, 0], [ 9E+9,9E+9, 9E9, 9E9, 9E9, 9E9]];
CONST robtarget p577:= [[59.0,68.0,0.0], [-1, 0, 0, 0], [-1, 0, 1, 0], [ 9E+9,9E+9, 9E9, 9E9, 9E9, 9E9]];
CONST robtarget p578:= [[59.0,68.0,0.0], [-1, 0, 0, 0], [-1, 0, 1, 0], [ 9E+9,9E+9, 9E9, 9E9, 9E9, 9E9]];
CONST robtarget p579:= [[68.0,68.0,0.0], [-1, 0, 0, 0], [-1, 0, 1, 0], [ 9E+9,9E+9, 9E9, 9E9, 9E9, 9E9]];
CONST robtarget p580:= [[68.0,68.0,-10.0], [-1, 0, 0, 0], [-1, 0, 1, 0], [ 9E+9,9E+9, 9E9, 9E9, 9E9, 9E9]];
CONST robtarget p581:= [[81.0,68.0,0.0], [-1, 0, 0, 0], [-1, 0, 1, 0], [ 9E+9,9E+9, 9E9, 9E9, 9E9, 9E9]];
CONST robtarget p582:= [[81.0,68.0,0.0], [-1, 0, 0, 0], [-1, 0, 1, 0], [ 9E+9,9E+9, 9E9, 9E9, 9E9, 9E9]];
CONST robtarget p583:= [[85.0,68.0,0.0], [-1, 0, 0, 0], [-1, 0, 1, 0], [ 9E+9,9E+9, 9E9, 9E9, 9E9, 9E9]];
CONST robtarget p584:= [[85.0,68.0,-10.0], [-1, 0, 0, 0], [-1, 0, 1, 0], [ 9E+9,9E+9, 9E9, 9E9, 9E9, 9E9]];
CONST robtarget p585:= [[121.0,68.0,0.0], [-1, 0, 0, 0], [-1, 0, 1, 0], [ 9E+9,9E+9, 9E9, 9E9, 9E9, 9E9]];
CONST robtarget p586:= [[121.0,68.0,0.0], [-1, 0, 0, 0], [-1, 0, 1, 0], [ 9E+9,9E+9, 9E9, 9E9, 9E9, 9E9]];
CONST robtarget p587:= [[124.0,68.0,0.0], [-1, 0, 0, 0], [-1, 0, 1, 0], [ 9E+9,9E+9, 9E9, 9E9, 9E9, 9E9]];
CONST robtarget p588:= [[124.0,68.0,-10.0], [-1, 0, 0, 0], [-1, 0, 1, 0], [ 9E+9,9E+9, 9E9, 9E9, 9E9, 9E9]];
CONST robtarget p589:= [[138.0,68.0,0.0], [-1, 0, 0, 0], [-1, 0, 1, 0], [ 9E+9,9E+9, 9E9, 9E9, 9E9, 9E9]];
CONST robtarget p590:= [[138.0,68.0,0.0], [-1, 0, 0, 0], [-1, 0, 1, 0], [ 9E+9,9E+9, 9E9, 9E9, 9E9, 9E9]];
CONST robtarget p591:= [[146.0,68.0,0.0], [-1, 0, 0, 0], [-1, 0, 1, 0], [ 9E+9,9E+9, 9E9, 9E9, 9E9, 9E9]];
CONST robtarget p592:= [[146.0,68.0,-10.0], [-1, 0, 0, 0], [-1, 0, 1, 0], [ 9E+9,9E+9, 9E9, 9E9, 9E9, 9E9]];
CONST robtarget p593:= [[174.0,68.0,0.0], [-1, 0, 0, 0], [-1, 0, 1, 0], [ 9E+9,9E+9, 9E9, 9E9, 9E9, 9E9]];
CONST robtarget p594:= [[174.0,68.0,0.0], [-1, 0, 0, 0], [-1, 0, 1, 0], [ 9E+9,9E+9, 9E9, 9E9, 9E9, 9E9]];
CONST robtarget p595:= [[183.0,68.0,0.0], [-1, 0, 0, 0], [-1, 0, 1, 0], [ 9E+9,9E+9, 9E9, 9E9, 9E9, 9E9]];
CONST robtarget p596:= [[183.0,68.0,-10.0], [-1, 0, 0, 0], [-1, 0, 1, 0], [ 9E+9,9E+9, 9E9, 9E9, 9E9, 9E9]];
CONST robtarget p597:= [[184.0,69.0,0.0], [-1, 0, 0, 0], [-1, 0, 1, 0], [ 9E+9,9E+9, 9E9, 9E9, 9E9, 9E9]];
CONST robtarget p598:= [[184.0,69.0,0.0], [-1, 0, 0, 0], [-1, 0, 1, 0], [ 9E+9,9E+9, 9E9, 9E9, 9E9, 9E9]];
CONST robtarget p599:= [[174.0,69.0,0.0], [-1, 0, 0, 0], [-1, 0, 1, 0], [ 9E+9,9E+9, 9E9, 9E9, 9E9, 9E9]];
CONST robtarget p600:= [[174.0,69.0,-10.0], [-1, 0, 0, 0], [-1, 0, 1, 0], [ 9E+9,9E+9, 9E9, 9E9, 9E9, 9E9]];
CONST robtarget p601:= [[146.0,69.0,0.0], [-1, 0, 0, 0], [-1, 0, 1, 0], [ 9E+9,9E+9, 9E9, 9E9, 9E9, 9E9]];
CONST robtarget p602:= [[146.0,69.0,0.0], [-1, 0, 0, 0], [-1, 0, 1, 0], [ 9E+9,9E+9, 9E9, 9E9, 9E9, 9E9]];
CONST robtarget p603:= [[138.0,69.0,0.0], [-1, 0, 0, 0], [-1, 0, 1, 0], [ 9E+9,9E+9, 9E9, 9E9, 9E9, 9E9]];
CONST robtarget p604:= [[138.0,69.0,-10.0], [-1, 0, 0, 0], [-1, 0, 1, 0], [ 9E+9,9E+9, 9E9, 9E9, 9E9, 9E9]];
CONST robtarget p605:= [[67.0,69.0,0.0], [-1, 0, 0, 0], [-1, 0, 1, 0], [ 9E+9,9E+9, 9E9, 9E9, 9E9, 9E9]];
CONST robtarget p606:= [[67.0,69.0,0.0], [-1, 0, 0, 0], [-1, 0, 1, 0], [ 9E+9,9E+9, 9E9, 9E9, 9E9, 9E9]];
CONST robtarget p607:= [[59.0,69.0,0.0], [-1, 0, 0, 0], [-1, 0, 1, 0], [ 9E+9,9E+9, 9E9, 9E9, 9E9, 9E9]];
CONST robtarget p608:= [[59.0,69.0,-10.0], [-1, 0, 0, 0], [-1, 0, 1, 0], [ 9E+9,9E+9, 9E9, 9E9, 9E9, 9E9]];
CONST robtarget p609:= [[59.0,70.0,0.0], [-1, 0, 0, 0], [-1, 0, 1, 0], [ 9E+9,9E+9, 9E9, 9E9, 9E9, 9E9]];
CONST robtarget p610:= [[59.0,70.0,0.0], [-1, 0, 0, 0], [-1, 0, 1, 0], [ 9E+9,9E+9, 9E9, 9E9, 9E9, 9E9]];
CONST robtarget p611:= [[67.0,70.0,0.0], [-1, 0, 0, 0], [-1, 0, 1, 0], [ 9E+9,9E+9, 9E9, 9E9, 9E9, 9E9]];
CONST robtarget p612:= [[67.0,70.0,-10.0], [-1, 0, 0, 0], [-1, 0, 1, 0], [ 9E+9,9E+9, 9E9, 9E9, 9E9, 9E9]];
CONST robtarget p613:= [[138.0,70.0,0.0], [-1, 0, 0, 0], [-1, 0, 1, 0], [ 9E+9,9E+9, 9E9, 9E9, 9E9, 9E9]];
CONST robtarget p614:= [[138.0,70.0,0.0], [-1, 0, 0, 0], [-1, 0, 1, 0], [ 9E+9,9E+9, 9E9, 9E9, 9E9, 9E9]];
CONST robtarget p615:= [[146.0,70.0,0.0], [-1, 0, 0, 0], [-1, 0, 1, 0], [ 9E+9,9E+9, 9E9, 9E9, 9E9, 9E9]];
CONST robtarget p616:= [[146.0,70.0,-10.0], [-1, 0, 0, 0], [-1, 0, 1, 0], [ 9E+9,9E+9, 9E9, 9E9, 9E9, 9E9]];
CONST robtarget p617:= [[175.0,70.0,0.0], [-1, 0, 0, 0], [-1, 0, 1, 0], [ 9E+9,9E+9, 9E9, 9E9, 9E9, 9E9]];
CONST robtarget p618:= [[175.0,70.0,0.0], [-1, 0, 0, 0], [-1, 0, 1, 0], [ 9E+9,9E+9, 9E9, 9E9, 9E9, 9E9]];
CONST robtarget p619:= [[184.0,70.0,0.0], [-1, 0, 0, 0], [-1, 0, 1, 0], [ 9E+9,9E+9, 9E9, 9E9, 9E9, 9E9]];
CONST robtarget p620:= [[184.0,70.0,-10.0], [-1, 0, 0, 0], [-1, 0, 1, 0], [ 9E+9,9E+9, 9E9, 9E9, 9E9, 9E9]];
CONST robtarget p621:= [[184.0,71.0,0.0], [-1, 0, 0, 0], [-1, 0, 1, 0], [ 9E+9,9E+9, 9E9, 9E9, 9E9, 9E9]];
CONST robtarget p622:= [[184.0,71.0,0.0], [-1, 0, 0, 0], [-1, 0, 1, 0], [ 9E+9,9E+9, 9E9, 9E9, 9E9, 9E9]];
CONST robtarget p623:= [[176.0,71.0,0.0], [-1, 0, 0, 0], [-1, 0, 1, 0], [ 9E+9,9E+9, 9E9, 9E9, 9E9, 9E9]];
CONST robtarget p624:= [[176.0,71.0,-10.0], [-1, 0, 0, 0], [-1, 0, 1, 0], [ 9E+9,9E+9, 9E9, 9E9, 9E9, 9E9]];
CONST robtarget p625:= [[146.0,71.0,0.0], [-1, 0, 0, 0], [-1, 0, 1, 0], [ 9E+9,9E+9, 9E9, 9E9, 9E9, 9E9]];
CONST robtarget p626:= [[146.0,71.0,0.0], [-1, 0, 0, 0], [-1, 0, 1, 0], [ 9E+9,9E+9, 9E9, 9E9, 9E9, 9E9]];
CONST robtarget p627:= [[137.0,71.0,0.0], [-1, 0, 0, 0], [-1, 0, 1, 0], [ 9E+9,9E+9, 9E9, 9E9, 9E9, 9E9]];
CONST robtarget p628:= [[137.0,71.0,-10.0], [-1, 0, 0, 0], [-1, 0, 1, 0], [ 9E+9,9E+9, 9E9, 9E9, 9E9, 9E9]];
CONST robtarget p629:= [[68.0,71.0,0.0], [-1, 0, 0, 0], [-1, 0, 1, 0], [ 9E+9,9E+9, 9E9, 9E9, 9E9, 9E9]];
CONST robtarget p630:= [[68.0,71.0,0.0], [-1, 0, 0, 0], [-1, 0, 1, 0], [ 9E+9,9E+9, 9E9, 9E9, 9E9, 9E9]];
CONST robtarget p631:= [[59.0,71.0,0.0], [-1, 0, 0, 0], [-1, 0, 1, 0], [ 9E+9,9E+9, 9E9, 9E9, 9E9, 9E9]];
CONST robtarget p632:= [[59.0,71.0,-10.0], [-1, 0, 0, 0], [-1, 0, 1, 0], [ 9E+9,9E+9, 9E9, 9E9, 9E9, 9E9]];
CONST robtarget p633:= [[60.0,72.0,0.0], [-1, 0, 0, 0], [-1, 0, 1, 0], [ 9E+9,9E+9, 9E9, 9E9, 9E9, 9E9]];
CONST robtarget p634:= [[60.0,72.0,0.0], [-1, 0, 0, 0], [-1, 0, 1, 0], [ 9E+9,9E+9, 9E9, 9E9, 9E9, 9E9]];
CONST robtarget p635:= [[69.0,72.0,0.0], [-1, 0, 0, 0], [-1, 0, 1, 0], [ 9E+9,9E+9, 9E9, 9E9, 9E9, 9E9]];
CONST robtarget p636:= [[69.0,72.0,-10.0], [-1, 0, 0, 0], [-1, 0, 1, 0], [ 9E+9,9E+9, 9E9, 9E9, 9E9, 9E9]];
CONST robtarget p637:= [[137.0,72.0,0.0], [-1, 0, 0, 0], [-1, 0, 1, 0], [ 9E+9,9E+9, 9E9, 9E9, 9E9, 9E9]];
CONST robtarget p638:= [[137.0,72.0,0.0], [-1, 0, 0, 0], [-1, 0, 1, 0], [ 9E+9,9E+9, 9E9, 9E9, 9E9, 9E9]];
CONST robtarget p639:= [[146.0,72.0,0.0], [-1, 0, 0, 0], [-1, 0, 1, 0], [ 9E+9,9E+9, 9E9, 9E9, 9E9, 9E9]];
CONST robtarget p640:= [[146.0,72.0,-10.0], [-1, 0, 0, 0], [-1, 0, 1, 0], [ 9E+9,9E+9, 9E9, 9E9, 9E9, 9E9]];
CONST robtarget p641:= [[165.0,72.0,0.0], [-1, 0, 0, 0], [-1, 0, 1, 0], [ 9E+9,9E+9, 9E9, 9E9, 9E9, 9E9]];
CONST robtarget p642:= [[165.0,72.0,0.0], [-1, 0, 0, 0], [-1, 0, 1, 0], [ 9E+9,9E+9, 9E9, 9E9, 9E9, 9E9]];
CONST robtarget p643:= [[166.0,72.0,0.0], [-1, 0, 0, 0], [-1, 0, 1, 0], [ 9E+9,9E+9, 9E9, 9E9, 9E9, 9E9]];
CONST robtarget p644:= [[166.0,72.0,-10.0], [-1, 0, 0, 0], [-1, 0, 1, 0], [ 9E+9,9E+9, 9E9, 9E9, 9E9, 9E9]];
CONST robtarget p645:= [[176.0,72.0,0.0], [-1, 0, 0, 0], [-1, 0, 1, 0], [ 9E+9,9E+9, 9E9, 9E9, 9E9, 9E9]];
CONST robtarget p646:= [[176.0,72.0,0.0], [-1, 0, 0, 0], [-1, 0, 1, 0], [ 9E+9,9E+9, 9E9, 9E9, 9E9, 9E9]];
CONST robtarget p647:= [[185.0,72.0,0.0], [-1, 0, 0, 0], [-1, 0, 1, 0], [ 9E+9,9E+9, 9E9, 9E9, 9E9, 9E9]];
CONST robtarget p648:= [[185.0,72.0,-10.0], [-1, 0, 0, 0], [-1, 0, 1, 0], [ 9E+9,9E+9, 9E9, 9E9, 9E9, 9E9]];
CONST robtarget p649:= [[185.0,73.0,0.0], [-1, 0, 0, 0], [-1, 0, 1, 0], [ 9E+9,9E+9, 9E9, 9E9, 9E9, 9E9]];
CONST robtarget p650:= [[185.0,73.0,0.0], [-1, 0, 0, 0], [-1, 0, 1, 0], [ 9E+9,9E+9, 9E9, 9E9, 9E9, 9E9]];
CONST robtarget p651:= [[176.0,73.0,0.0], [-1, 0, 0, 0], [-1, 0, 1, 0], [ 9E+9,9E+9, 9E9, 9E9, 9E9, 9E9]];
CONST robtarget p652:= [[176.0,73.0,-10.0], [-1, 0, 0, 0], [-1, 0, 1, 0], [ 9E+9,9E+9, 9E9, 9E9, 9E9, 9E9]];
CONST robtarget p653:= [[168.0,73.0,0.0], [-1, 0, 0, 0], [-1, 0, 1, 0], [ 9E+9,9E+9, 9E9, 9E9, 9E9, 9E9]];
CONST robtarget p654:= [[168.0,73.0,0.0], [-1, 0, 0, 0], [-1, 0, 1, 0], [ 9E+9,9E+9, 9E9, 9E9, 9E9, 9E9]];
CONST robtarget p655:= [[162.0,73.0,0.0], [-1, 0, 0, 0], [-1, 0, 1, 0], [ 9E+9,9E+9, 9E9, 9E9, 9E9, 9E9]];
CONST robtarget p656:= [[162.0,73.0,-10.0], [-1, 0, 0, 0], [-1, 0, 1, 0], [ 9E+9,9E+9, 9E9, 9E9, 9E9, 9E9]];
CONST robtarget p657:= [[145.0,73.0,0.0], [-1, 0, 0, 0], [-1, 0, 1, 0], [ 9E+9,9E+9, 9E9, 9E9, 9E9, 9E9]];
CONST robtarget p658:= [[145.0,73.0,0.0], [-1, 0, 0, 0], [-1, 0, 1, 0], [ 9E+9,9E+9, 9E9, 9E9, 9E9, 9E9]];
CONST robtarget p659:= [[136.0,73.0,0.0], [-1, 0, 0, 0], [-1, 0, 1, 0], [ 9E+9,9E+9, 9E9, 9E9, 9E9, 9E9]];
CONST robtarget p660:= [[136.0,73.0,-10.0], [-1, 0, 0, 0], [-1, 0, 1, 0], [ 9E+9,9E+9, 9E9, 9E9, 9E9, 9E9]];
CONST robtarget p661:= [[70.0,73.0,0.0], [-1, 0, 0, 0], [-1, 0, 1, 0], [ 9E+9,9E+9, 9E9, 9E9, 9E9, 9E9]];
CONST robtarget p662:= [[70.0,73.0,0.0], [-1, 0, 0, 0], [-1, 0, 1, 0], [ 9E+9,9E+9, 9E9, 9E9, 9E9, 9E9]];
CONST robtarget p663:= [[60.0,73.0,0.0], [-1, 0, 0, 0], [-1, 0, 1, 0], [ 9E+9,9E+9, 9E9, 9E9, 9E9, 9E9]];
CONST robtarget p664:= [[60.0,73.0,-10.0], [-1, 0, 0, 0], [-1, 0, 1, 0], [ 9E+9,9E+9, 9E9, 9E9, 9E9, 9E9]];
CONST robtarget p665:= [[61.0,74.0,0.0], [-1, 0, 0, 0], [-1, 0, 1, 0], [ 9E+9,9E+9, 9E9, 9E9, 9E9, 9E9]];
CONST robtarget p666:= [[61.0,74.0,0.0], [-1, 0, 0, 0], [-1, 0, 1, 0], [ 9E+9,9E+9, 9E9, 9E9, 9E9, 9E9]];
CONST robtarget p667:= [[70.0,74.0,0.0], [-1, 0, 0, 0], [-1, 0, 1, 0], [ 9E+9,9E+9, 9E9, 9E9, 9E9, 9E9]];
CONST robtarget p668:= [[70.0,74.0,-10.0], [-1, 0, 0, 0], [-1, 0, 1, 0], [ 9E+9,9E+9, 9E9, 9E9, 9E9, 9E9]];
CONST robtarget p669:= [[135.0,74.0,0.0], [-1, 0, 0, 0], [-1, 0, 1, 0], [ 9E+9,9E+9, 9E9, 9E9, 9E9, 9E9]];
CONST robtarget p670:= [[135.0,74.0,0.0], [-1, 0, 0, 0], [-1, 0, 1, 0], [ 9E+9,9E+9, 9E9, 9E9, 9E9, 9E9]];
CONST robtarget p671:= [[145.0,74.0,0.0], [-1, 0, 0, 0], [-1, 0, 1, 0], [ 9E+9,9E+9, 9E9, 9E9, 9E9, 9E9]];
CONST robtarget p672:= [[145.0,74.0,-10.0], [-1, 0, 0, 0], [-1, 0, 1, 0], [ 9E+9,9E+9, 9E9, 9E9, 9E9, 9E9]];
CONST robtarget p673:= [[160.0,74.0,0.0], [-1, 0, 0, 0], [-1, 0, 1, 0], [ 9E+9,9E+9, 9E9, 9E9, 9E9, 9E9]];
CONST robtarget p674:= [[160.0,74.0,0.0], [-1, 0, 0, 0], [-1, 0, 1, 0], [ 9E+9,9E+9, 9E9, 9E9, 9E9, 9E9]];
CONST robtarget p675:= [[170.0,74.0,0.0], [-1, 0, 0, 0], [-1, 0, 1, 0], [ 9E+9,9E+9, 9E9, 9E9, 9E9, 9E9]];
CONST robtarget p676:= [[170.0,74.0,-10.0], [-1, 0, 0, 0], [-1, 0, 1, 0], [ 9E+9,9E+9, 9E9, 9E9, 9E9, 9E9]];
CONST robtarget p677:= [[175.0,74.0,0.0], [-1, 0, 0, 0], [-1, 0, 1, 0], [ 9E+9,9E+9, 9E9, 9E9, 9E9, 9E9]];
CONST robtarget p678:= [[175.0,74.0,0.0], [-1, 0, 0, 0], [-1, 0, 1, 0], [ 9E+9,9E+9, 9E9, 9E9, 9E9, 9E9]];
CONST robtarget p679:= [[184.0,74.0,0.0], [-1, 0, 0, 0], [-1, 0, 1, 0], [ 9E+9,9E+9, 9E9, 9E9, 9E9, 9E9]];
CONST robtarget p680:= [[184.0,74.0,-10.0], [-1, 0, 0, 0], [-1, 0, 1, 0], [ 9E+9,9E+9, 9E9, 9E9, 9E9, 9E9]];
CONST robtarget p681:= [[184.0,75.0,0.0], [-1, 0, 0, 0], [-1, 0, 1, 0], [ 9E+9,9E+9, 9E9, 9E9, 9E9, 9E9]];
CONST robtarget p682:= [[184.0,75.0,0.0], [-1, 0, 0, 0], [-1, 0, 1, 0], [ 9E+9,9E+9, 9E9, 9E9, 9E9, 9E9]];
CONST robtarget p683:= [[174.0,75.0,0.0], [-1, 0, 0, 0], [-1, 0, 1, 0], [ 9E+9,9E+9, 9E9, 9E9, 9E9, 9E9]];
CONST robtarget p684:= [[174.0,75.0,-10.0], [-1, 0, 0, 0], [-1, 0, 1, 0], [ 9E+9,9E+9, 9E9, 9E9, 9E9, 9E9]];
CONST robtarget p685:= [[172.0,75.0,0.0], [-1, 0, 0, 0], [-1, 0, 1, 0], [ 9E+9,9E+9, 9E9, 9E9, 9E9, 9E9]];
CONST robtarget p686:= [[172.0,75.0,0.0], [-1, 0, 0, 0], [-1, 0, 1, 0], [ 9E+9,9E+9, 9E9, 9E9, 9E9, 9E9]];
CONST robtarget p687:= [[158.0,75.0,0.0], [-1, 0, 0, 0], [-1, 0, 1, 0], [ 9E+9,9E+9, 9E9, 9E9, 9E9, 9E9]];
CONST robtarget p688:= [[158.0,75.0,-10.0], [-1, 0, 0, 0], [-1, 0, 1, 0], [ 9E+9,9E+9, 9E9, 9E9, 9E9, 9E9]];
CONST robtarget p689:= [[144.0,75.0,0.0], [-1, 0, 0, 0], [-1, 0, 1, 0], [ 9E+9,9E+9, 9E9, 9E9, 9E9, 9E9]];
CONST robtarget p690:= [[144.0,75.0,0.0], [-1, 0, 0, 0], [-1, 0, 1, 0], [ 9E+9,9E+9, 9E9, 9E9, 9E9, 9E9]];
CONST robtarget p691:= [[134.0,75.0,0.0], [-1, 0, 0, 0], [-1, 0, 1, 0], [ 9E+9,9E+9, 9E9, 9E9, 9E9, 9E9]];
CONST robtarget p692:= [[134.0,75.0,-10.0], [-1, 0, 0, 0], [-1, 0, 1, 0], [ 9E+9,9E+9, 9E9, 9E9, 9E9, 9E9]];
CONST robtarget p693:= [[122.0,75.0,0.0], [-1, 0, 0, 0], [-1, 0, 1, 0], [ 9E+9,9E+9, 9E9, 9E9, 9E9, 9E9]];
CONST robtarget p694:= [[122.0,75.0,0.0], [-1, 0, 0, 0], [-1, 0, 1, 0], [ 9E+9,9E+9, 9E9, 9E9, 9E9, 9E9]];
CONST robtarget p695:= [[117.0,75.0,0.0], [-1, 0, 0, 0], [-1, 0, 1, 0], [ 9E+9,9E+9, 9E9, 9E9, 9E9, 9E9]];
CONST robtarget p696:= [[117.0,75.0,-10.0], [-1, 0, 0, 0], [-1, 0, 1, 0], [ 9E+9,9E+9, 9E9, 9E9, 9E9, 9E9]];
CONST robtarget p697:= [[112.0,75.0,0.0], [-1, 0, 0, 0], [-1, 0, 1, 0], [ 9E+9,9E+9, 9E9, 9E9, 9E9, 9E9]];
CONST robtarget p698:= [[112.0,75.0,0.0], [-1, 0, 0, 0], [-1, 0, 1, 0], [ 9E+9,9E+9, 9E9, 9E9, 9E9, 9E9]];
CONST robtarget p699:= [[107.0,75.0,0.0], [-1, 0, 0, 0], [-1, 0, 1, 0], [ 9E+9,9E+9, 9E9, 9E9, 9E9, 9E9]];
CONST robtarget p700:= [[107.0,75.0,-10.0], [-1, 0, 0, 0], [-1, 0, 1, 0], [ 9E+9,9E+9, 9E9, 9E9, 9E9, 9E9]];
CONST robtarget p701:= [[71.0,75.0,0.0], [-1, 0, 0, 0], [-1, 0, 1, 0], [ 9E+9,9E+9, 9E9, 9E9, 9E9, 9E9]];
CONST robtarget p702:= [[71.0,75.0,0.0], [-1, 0, 0, 0], [-1, 0, 1, 0], [ 9E+9,9E+9, 9E9, 9E9, 9E9, 9E9]];
CONST robtarget p703:= [[61.0,75.0,0.0], [-1, 0, 0, 0], [-1, 0, 1, 0], [ 9E+9,9E+9, 9E9, 9E9, 9E9, 9E9]];
CONST robtarget p704:= [[61.0,75.0,-10.0], [-1, 0, 0, 0], [-1, 0, 1, 0], [ 9E+9,9E+9, 9E9, 9E9, 9E9, 9E9]];
CONST robtarget p705:= [[62.0,76.0,0.0], [-1, 0, 0, 0], [-1, 0, 1, 0], [ 9E+9,9E+9, 9E9, 9E9, 9E9, 9E9]];
CONST robtarget p706:= [[62.0,76.0,0.0], [-1, 0, 0, 0], [-1, 0, 1, 0], [ 9E+9,9E+9, 9E9, 9E9, 9E9, 9E9]];
CONST robtarget p707:= [[72.0,76.0,0.0], [-1, 0, 0, 0], [-1, 0, 1, 0], [ 9E+9,9E+9, 9E9, 9E9, 9E9, 9E9]];
CONST robtarget p708:= [[72.0,76.0,-10.0], [-1, 0, 0, 0], [-1, 0, 1, 0], [ 9E+9,9E+9, 9E9, 9E9, 9E9, 9E9]];
CONST robtarget p709:= [[107.0,76.0,0.0], [-1, 0, 0, 0], [-1, 0, 1, 0], [ 9E+9,9E+9, 9E9, 9E9, 9E9, 9E9]];
CONST robtarget p710:= [[107.0,76.0,0.0], [-1, 0, 0, 0], [-1, 0, 1, 0], [ 9E+9,9E+9, 9E9, 9E9, 9E9, 9E9]];
CONST robtarget p711:= [[111.0,76.0,0.0], [-1, 0, 0, 0], [-1, 0, 1, 0], [ 9E+9,9E+9, 9E9, 9E9, 9E9, 9E9]];
CONST robtarget p712:= [[111.0,76.0,-10.0], [-1, 0, 0, 0], [-1, 0, 1, 0], [ 9E+9,9E+9, 9E9, 9E9, 9E9, 9E9]];
CONST robtarget p713:= [[117.0,76.0,0.0], [-1, 0, 0, 0], [-1, 0, 1, 0], [ 9E+9,9E+9, 9E9, 9E9, 9E9, 9E9]];
CONST robtarget p714:= [[117.0,76.0,0.0], [-1, 0, 0, 0], [-1, 0, 1, 0], [ 9E+9,9E+9, 9E9, 9E9, 9E9, 9E9]];
CONST robtarget p715:= [[122.0,76.0,0.0], [-1, 0, 0, 0], [-1, 0, 1, 0], [ 9E+9,9E+9, 9E9, 9E9, 9E9, 9E9]];
CONST robtarget p716:= [[122.0,76.0,-10.0], [-1, 0, 0, 0], [-1, 0, 1, 0], [ 9E+9,9E+9, 9E9, 9E9, 9E9, 9E9]];
CONST robtarget p717:= [[134.0,76.0,0.0], [-1, 0, 0, 0], [-1, 0, 1, 0], [ 9E+9,9E+9, 9E9, 9E9, 9E9, 9E9]];
CONST robtarget p718:= [[134.0,76.0,0.0], [-1, 0, 0, 0], [-1, 0, 1, 0], [ 9E+9,9E+9, 9E9, 9E9, 9E9, 9E9]];
CONST robtarget p719:= [[143.0,76.0,0.0], [-1, 0, 0, 0], [-1, 0, 1, 0], [ 9E+9,9E+9, 9E9, 9E9, 9E9, 9E9]];
CONST robtarget p720:= [[143.0,76.0,-10.0], [-1, 0, 0, 0], [-1, 0, 1, 0], [ 9E+9,9E+9, 9E9, 9E9, 9E9, 9E9]];
CONST robtarget p721:= [[157.0,76.0,0.0], [-1, 0, 0, 0], [-1, 0, 1, 0], [ 9E+9,9E+9, 9E9, 9E9, 9E9, 9E9]];
CONST robtarget p722:= [[157.0,76.0,0.0], [-1, 0, 0, 0], [-1, 0, 1, 0], [ 9E+9,9E+9, 9E9, 9E9, 9E9, 9E9]];
CONST robtarget p723:= [[184.0,76.0,0.0], [-1, 0, 0, 0], [-1, 0, 1, 0], [ 9E+9,9E+9, 9E9, 9E9, 9E9, 9E9]];
CONST robtarget p724:= [[184.0,76.0,-10.0], [-1, 0, 0, 0], [-1, 0, 1, 0], [ 9E+9,9E+9, 9E9, 9E9, 9E9, 9E9]];
CONST robtarget p725:= [[183.0,77.0,0.0], [-1, 0, 0, 0], [-1, 0, 1, 0], [ 9E+9,9E+9, 9E9, 9E9, 9E9, 9E9]];
CONST robtarget p726:= [[183.0,77.0,0.0], [-1, 0, 0, 0], [-1, 0, 1, 0], [ 9E+9,9E+9, 9E9, 9E9, 9E9, 9E9]];
CONST robtarget p727:= [[157.0,77.0,0.0], [-1, 0, 0, 0], [-1, 0, 1, 0], [ 9E+9,9E+9, 9E9, 9E9, 9E9, 9E9]];
CONST robtarget p728:= [[157.0,77.0,-10.0], [-1, 0, 0, 0], [-1, 0, 1, 0], [ 9E+9,9E+9, 9E9, 9E9, 9E9, 9E9]];
CONST robtarget p729:= [[143.0,77.0,0.0], [-1, 0, 0, 0], [-1, 0, 1, 0], [ 9E+9,9E+9, 9E9, 9E9, 9E9, 9E9]];
CONST robtarget p730:= [[143.0,77.0,0.0], [-1, 0, 0, 0], [-1, 0, 1, 0], [ 9E+9,9E+9, 9E9, 9E9, 9E9, 9E9]];
CONST robtarget p731:= [[133.0,77.0,0.0], [-1, 0, 0, 0], [-1, 0, 1, 0], [ 9E+9,9E+9, 9E9, 9E9, 9E9, 9E9]];
CONST robtarget p732:= [[133.0,77.0,-10.0], [-1, 0, 0, 0], [-1, 0, 1, 0], [ 9E+9,9E+9, 9E9, 9E9, 9E9, 9E9]];
CONST robtarget p733:= [[120.0,77.0,0.0], [-1, 0, 0, 0], [-1, 0, 1, 0], [ 9E+9,9E+9, 9E9, 9E9, 9E9, 9E9]];
CONST robtarget p734:= [[120.0,77.0,0.0], [-1, 0, 0, 0], [-1, 0, 1, 0], [ 9E+9,9E+9, 9E9, 9E9, 9E9, 9E9]];
CONST robtarget p735:= [[118.0,77.0,0.0], [-1, 0, 0, 0], [-1, 0, 1, 0], [ 9E+9,9E+9, 9E9, 9E9, 9E9, 9E9]];
CONST robtarget p736:= [[118.0,77.0,-10.0], [-1, 0, 0, 0], [-1, 0, 1, 0], [ 9E+9,9E+9, 9E9, 9E9, 9E9, 9E9]];
CONST robtarget p737:= [[110.0,77.0,0.0], [-1, 0, 0, 0], [-1, 0, 1, 0], [ 9E+9,9E+9, 9E9, 9E9, 9E9, 9E9]];
CONST robtarget p738:= [[110.0,77.0,0.0], [-1, 0, 0, 0], [-1, 0, 1, 0], [ 9E+9,9E+9, 9E9, 9E9, 9E9, 9E9]];
CONST robtarget p739:= [[109.0,77.0,0.0], [-1, 0, 0, 0], [-1, 0, 1, 0], [ 9E+9,9E+9, 9E9, 9E9, 9E9, 9E9]];
CONST robtarget p740:= [[109.0,77.0,-10.0], [-1, 0, 0, 0], [-1, 0, 1, 0], [ 9E+9,9E+9, 9E9, 9E9, 9E9, 9E9]];
CONST robtarget p741:= [[72.0,77.0,0.0], [-1, 0, 0, 0], [-1, 0, 1, 0], [ 9E+9,9E+9, 9E9, 9E9, 9E9, 9E9]];
CONST robtarget p742:= [[72.0,77.0,0.0], [-1, 0, 0, 0], [-1, 0, 1, 0], [ 9E+9,9E+9, 9E9, 9E9, 9E9, 9E9]];
CONST robtarget p743:= [[63.0,77.0,0.0], [-1, 0, 0, 0], [-1, 0, 1, 0], [ 9E+9,9E+9, 9E9, 9E9, 9E9, 9E9]];
CONST robtarget p744:= [[63.0,77.0,-10.0], [-1, 0, 0, 0], [-1, 0, 1, 0], [ 9E+9,9E+9, 9E9, 9E9, 9E9, 9E9]];
CONST robtarget p745:= [[63.0,78.0,0.0], [-1, 0, 0, 0], [-1, 0, 1, 0], [ 9E+9,9E+9, 9E9, 9E9, 9E9, 9E9]];
CONST robtarget p746:= [[63.0,78.0,0.0], [-1, 0, 0, 0], [-1, 0, 1, 0], [ 9E+9,9E+9, 9E9, 9E9, 9E9, 9E9]];
CONST robtarget p747:= [[72.0,78.0,0.0], [-1, 0, 0, 0], [-1, 0, 1, 0], [ 9E+9,9E+9, 9E9, 9E9, 9E9, 9E9]];
CONST robtarget p748:= [[72.0,78.0,-10.0], [-1, 0, 0, 0], [-1, 0, 1, 0], [ 9E+9,9E+9, 9E9, 9E9, 9E9, 9E9]];
CONST robtarget p749:= [[109.0,78.0,0.0], [-1, 0, 0, 0], [-1, 0, 1, 0], [ 9E+9,9E+9, 9E9, 9E9, 9E9, 9E9]];
CONST robtarget p750:= [[109.0,78.0,0.0], [-1, 0, 0, 0], [-1, 0, 1, 0], [ 9E+9,9E+9, 9E9, 9E9, 9E9, 9E9]];
CONST robtarget p751:= [[110.0,78.0,0.0], [-1, 0, 0, 0], [-1, 0, 1, 0], [ 9E+9,9E+9, 9E9, 9E9, 9E9, 9E9]];
CONST robtarget p752:= [[110.0,78.0,-10.0], [-1, 0, 0, 0], [-1, 0, 1, 0], [ 9E+9,9E+9, 9E9, 9E9, 9E9, 9E9]];
CONST robtarget p753:= [[118.0,78.0,0.0], [-1, 0, 0, 0], [-1, 0, 1, 0], [ 9E+9,9E+9, 9E9, 9E9, 9E9, 9E9]];
CONST robtarget p754:= [[118.0,78.0,0.0], [-1, 0, 0, 0], [-1, 0, 1, 0], [ 9E+9,9E+9, 9E9, 9E9, 9E9, 9E9]];
CONST robtarget p755:= [[120.0,78.0,0.0], [-1, 0, 0, 0], [-1, 0, 1, 0], [ 9E+9,9E+9, 9E9, 9E9, 9E9, 9E9]];
CONST robtarget p756:= [[120.0,78.0,-10.0], [-1, 0, 0, 0], [-1, 0, 1, 0], [ 9E+9,9E+9, 9E9, 9E9, 9E9, 9E9]];
CONST robtarget p757:= [[133.0,78.0,0.0], [-1, 0, 0, 0], [-1, 0, 1, 0], [ 9E+9,9E+9, 9E9, 9E9, 9E9, 9E9]];
CONST robtarget p758:= [[133.0,78.0,0.0], [-1, 0, 0, 0], [-1, 0, 1, 0], [ 9E+9,9E+9, 9E9, 9E9, 9E9, 9E9]];
CONST robtarget p759:= [[142.0,78.0,0.0], [-1, 0, 0, 0], [-1, 0, 1, 0], [ 9E+9,9E+9, 9E9, 9E9, 9E9, 9E9]];
CONST robtarget p760:= [[142.0,78.0,-10.0], [-1, 0, 0, 0], [-1, 0, 1, 0], [ 9E+9,9E+9, 9E9, 9E9, 9E9, 9E9]];
CONST robtarget p761:= [[156.0,78.0,0.0], [-1, 0, 0, 0], [-1, 0, 1, 0], [ 9E+9,9E+9, 9E9, 9E9, 9E9, 9E9]];
CONST robtarget p762:= [[156.0,78.0,0.0], [-1, 0, 0, 0], [-1, 0, 1, 0], [ 9E+9,9E+9, 9E9, 9E9, 9E9, 9E9]];
CONST robtarget p763:= [[182.0,78.0,0.0], [-1, 0, 0, 0], [-1, 0, 1, 0], [ 9E+9,9E+9, 9E9, 9E9, 9E9, 9E9]];
CONST robtarget p764:= [[182.0,78.0,-10.0], [-1, 0, 0, 0], [-1, 0, 1, 0], [ 9E+9,9E+9, 9E9, 9E9, 9E9, 9E9]];
CONST robtarget p765:= [[181.0,79.0,0.0], [-1, 0, 0, 0], [-1, 0, 1, 0], [ 9E+9,9E+9, 9E9, 9E9, 9E9, 9E9]];
CONST robtarget p766:= [[181.0,79.0,0.0], [-1, 0, 0, 0], [-1, 0, 1, 0], [ 9E+9,9E+9, 9E9, 9E9, 9E9, 9E9]];
CONST robtarget p767:= [[156.0,79.0,0.0], [-1, 0, 0, 0], [-1, 0, 1, 0], [ 9E+9,9E+9, 9E9, 9E9, 9E9, 9E9]];
CONST robtarget p768:= [[156.0,79.0,-10.0], [-1, 0, 0, 0], [-1, 0, 1, 0], [ 9E+9,9E+9, 9E9, 9E9, 9E9, 9E9]];
CONST robtarget p769:= [[142.0,79.0,0.0], [-1, 0, 0, 0], [-1, 0, 1, 0], [ 9E+9,9E+9, 9E9, 9E9, 9E9, 9E9]];
CONST robtarget p770:= [[142.0,79.0,0.0], [-1, 0, 0, 0], [-1, 0, 1, 0], [ 9E+9,9E+9, 9E9, 9E9, 9E9, 9E9]];
CONST robtarget p771:= [[133.0,79.0,0.0], [-1, 0, 0, 0], [-1, 0, 1, 0], [ 9E+9,9E+9, 9E9, 9E9, 9E9, 9E9]];
CONST robtarget p772:= [[133.0,79.0,-10.0], [-1, 0, 0, 0], [-1, 0, 1, 0], [ 9E+9,9E+9, 9E9, 9E9, 9E9, 9E9]];
CONST robtarget p773:= [[120.0,79.0,0.0], [-1, 0, 0, 0], [-1, 0, 1, 0], [ 9E+9,9E+9, 9E9, 9E9, 9E9, 9E9]];
CONST robtarget p774:= [[120.0,79.0,0.0], [-1, 0, 0, 0], [-1, 0, 1, 0], [ 9E+9,9E+9, 9E9, 9E9, 9E9, 9E9]];
CONST robtarget p775:= [[118.0,79.0,0.0], [-1, 0, 0, 0], [-1, 0, 1, 0], [ 9E+9,9E+9, 9E9, 9E9, 9E9, 9E9]];
CONST robtarget p776:= [[118.0,79.0,-10.0], [-1, 0, 0, 0], [-1, 0, 1, 0], [ 9E+9,9E+9, 9E9, 9E9, 9E9, 9E9]];
CONST robtarget p777:= [[111.0,79.0,0.0], [-1, 0, 0, 0], [-1, 0, 1, 0], [ 9E+9,9E+9, 9E9, 9E9, 9E9, 9E9]];
CONST robtarget p778:= [[111.0,79.0,0.0], [-1, 0, 0, 0], [-1, 0, 1, 0], [ 9E+9,9E+9, 9E9, 9E9, 9E9, 9E9]];
CONST robtarget p779:= [[109.0,79.0,0.0], [-1, 0, 0, 0], [-1, 0, 1, 0], [ 9E+9,9E+9, 9E9, 9E9, 9E9, 9E9]];
CONST robtarget p780:= [[109.0,79.0,-10.0], [-1, 0, 0, 0], [-1, 0, 1, 0], [ 9E+9,9E+9, 9E9, 9E9, 9E9, 9E9]];
CONST robtarget p781:= [[72.0,79.0,0.0], [-1, 0, 0, 0], [-1, 0, 1, 0], [ 9E+9,9E+9, 9E9, 9E9, 9E9, 9E9]];
CONST robtarget p782:= [[72.0,79.0,0.0], [-1, 0, 0, 0], [-1, 0, 1, 0], [ 9E+9,9E+9, 9E9, 9E9, 9E9, 9E9]];
CONST robtarget p783:= [[63.0,79.0,0.0], [-1, 0, 0, 0], [-1, 0, 1, 0], [ 9E+9,9E+9, 9E9, 9E9, 9E9, 9E9]];
CONST robtarget p784:= [[63.0,79.0,-10.0], [-1, 0, 0, 0], [-1, 0, 1, 0], [ 9E+9,9E+9, 9E9, 9E9, 9E9, 9E9]];
CONST robtarget p785:= [[63.0,80.0,0.0], [-1, 0, 0, 0], [-1, 0, 1, 0], [ 9E+9,9E+9, 9E9, 9E9, 9E9, 9E9]];
CONST robtarget p786:= [[63.0,80.0,0.0], [-1, 0, 0, 0], [-1, 0, 1, 0], [ 9E+9,9E+9, 9E9, 9E9, 9E9, 9E9]];
CONST robtarget p787:= [[72.0,80.0,0.0], [-1, 0, 0, 0], [-1, 0, 1, 0], [ 9E+9,9E+9, 9E9, 9E9, 9E9, 9E9]];
CONST robtarget p788:= [[72.0,80.0,-10.0], [-1, 0, 0, 0], [-1, 0, 1, 0], [ 9E+9,9E+9, 9E9, 9E9, 9E9, 9E9]];
CONST robtarget p789:= [[110.0,80.0,0.0], [-1, 0, 0, 0], [-1, 0, 1, 0], [ 9E+9,9E+9, 9E9, 9E9, 9E9, 9E9]];
CONST robtarget p790:= [[110.0,80.0,0.0], [-1, 0, 0, 0], [-1, 0, 1, 0], [ 9E+9,9E+9, 9E9, 9E9, 9E9, 9E9]];
CONST robtarget p791:= [[119.0,80.0,0.0], [-1, 0, 0, 0], [-1, 0, 1, 0], [ 9E+9,9E+9, 9E9, 9E9, 9E9, 9E9]];
CONST robtarget p792:= [[119.0,80.0,-10.0], [-1, 0, 0, 0], [-1, 0, 1, 0], [ 9E+9,9E+9, 9E9, 9E9, 9E9, 9E9]];
CONST robtarget p793:= [[134.0,80.0,0.0], [-1, 0, 0, 0], [-1, 0, 1, 0], [ 9E+9,9E+9, 9E9, 9E9, 9E9, 9E9]];
CONST robtarget p794:= [[134.0,80.0,0.0], [-1, 0, 0, 0], [-1, 0, 1, 0], [ 9E+9,9E+9, 9E9, 9E9, 9E9, 9E9]];
CONST robtarget p795:= [[143.0,80.0,0.0], [-1, 0, 0, 0], [-1, 0, 1, 0], [ 9E+9,9E+9, 9E9, 9E9, 9E9, 9E9]];
CONST robtarget p796:= [[143.0,80.0,-10.0], [-1, 0, 0, 0], [-1, 0, 1, 0], [ 9E+9,9E+9, 9E9, 9E9, 9E9, 9E9]];
CONST robtarget p797:= [[157.0,80.0,0.0], [-1, 0, 0, 0], [-1, 0, 1, 0], [ 9E+9,9E+9, 9E9, 9E9, 9E9, 9E9]];
CONST robtarget p798:= [[157.0,80.0,0.0], [-1, 0, 0, 0], [-1, 0, 1, 0], [ 9E+9,9E+9, 9E9, 9E9, 9E9, 9E9]];
CONST robtarget p799:= [[180.0,80.0,0.0], [-1, 0, 0, 0], [-1, 0, 1, 0], [ 9E+9,9E+9, 9E9, 9E9, 9E9, 9E9]];
CONST robtarget p800:= [[180.0,80.0,-10.0], [-1, 0, 0, 0], [-1, 0, 1, 0], [ 9E+9,9E+9, 9E9, 9E9, 9E9, 9E9]];
CONST robtarget p801:= [[179.0,81.0,0.0], [-1, 0, 0, 0], [-1, 0, 1, 0], [ 9E+9,9E+9, 9E9, 9E9, 9E9, 9E9]];
CONST robtarget p802:= [[179.0,81.0,0.0], [-1, 0, 0, 0], [-1, 0, 1, 0], [ 9E+9,9E+9, 9E9, 9E9, 9E9, 9E9]];
CONST robtarget p803:= [[166.0,81.0,0.0], [-1, 0, 0, 0], [-1, 0, 1, 0], [ 9E+9,9E+9, 9E9, 9E9, 9E9, 9E9]];
CONST robtarget p804:= [[166.0,81.0,-10.0], [-1, 0, 0, 0], [-1, 0, 1, 0], [ 9E+9,9E+9, 9E9, 9E9, 9E9, 9E9]];
CONST robtarget p805:= [[164.0,81.0,0.0], [-1, 0, 0, 0], [-1, 0, 1, 0], [ 9E+9,9E+9, 9E9, 9E9, 9E9, 9E9]];
CONST robtarget p806:= [[164.0,81.0,0.0], [-1, 0, 0, 0], [-1, 0, 1, 0], [ 9E+9,9E+9, 9E9, 9E9, 9E9, 9E9]];
CONST robtarget p807:= [[158.0,81.0,0.0], [-1, 0, 0, 0], [-1, 0, 1, 0], [ 9E+9,9E+9, 9E9, 9E9, 9E9, 9E9]];
CONST robtarget p808:= [[158.0,81.0,-10.0], [-1, 0, 0, 0], [-1, 0, 1, 0], [ 9E+9,9E+9, 9E9, 9E9, 9E9, 9E9]];
CONST robtarget p809:= [[143.0,81.0,0.0], [-1, 0, 0, 0], [-1, 0, 1, 0], [ 9E+9,9E+9, 9E9, 9E9, 9E9, 9E9]];
CONST robtarget p810:= [[143.0,81.0,0.0], [-1, 0, 0, 0], [-1, 0, 1, 0], [ 9E+9,9E+9, 9E9, 9E9, 9E9, 9E9]];
CONST robtarget p811:= [[134.0,81.0,0.0], [-1, 0, 0, 0], [-1, 0, 1, 0], [ 9E+9,9E+9, 9E9, 9E9, 9E9, 9E9]];
CONST robtarget p812:= [[134.0,81.0,-10.0], [-1, 0, 0, 0], [-1, 0, 1, 0], [ 9E+9,9E+9, 9E9, 9E9, 9E9, 9E9]];
CONST robtarget p813:= [[119.0,81.0,0.0], [-1, 0, 0, 0], [-1, 0, 1, 0], [ 9E+9,9E+9, 9E9, 9E9, 9E9, 9E9]];
CONST robtarget p814:= [[119.0,81.0,0.0], [-1, 0, 0, 0], [-1, 0, 1, 0], [ 9E+9,9E+9, 9E9, 9E9, 9E9, 9E9]];
CONST robtarget p815:= [[110.0,81.0,0.0], [-1, 0, 0, 0], [-1, 0, 1, 0], [ 9E+9,9E+9, 9E9, 9E9, 9E9, 9E9]];
CONST robtarget p816:= [[110.0,81.0,-10.0], [-1, 0, 0, 0], [-1, 0, 1, 0], [ 9E+9,9E+9, 9E9, 9E9, 9E9, 9E9]];
CONST robtarget p817:= [[71.0,81.0,0.0], [-1, 0, 0, 0], [-1, 0, 1, 0], [ 9E+9,9E+9, 9E9, 9E9, 9E9, 9E9]];
CONST robtarget p818:= [[71.0,81.0,0.0], [-1, 0, 0, 0], [-1, 0, 1, 0], [ 9E+9,9E+9, 9E9, 9E9, 9E9, 9E9]];
CONST robtarget p819:= [[62.0,81.0,0.0], [-1, 0, 0, 0], [-1, 0, 1, 0], [ 9E+9,9E+9, 9E9, 9E9, 9E9, 9E9]];
CONST robtarget p820:= [[62.0,81.0,-10.0], [-1, 0, 0, 0], [-1, 0, 1, 0], [ 9E+9,9E+9, 9E9, 9E9, 9E9, 9E9]];
CONST robtarget p821:= [[62.0,82.0,0.0], [-1, 0, 0, 0], [-1, 0, 1, 0], [ 9E+9,9E+9, 9E9, 9E9, 9E9, 9E9]];
CONST robtarget p822:= [[62.0,82.0,0.0], [-1, 0, 0, 0], [-1, 0, 1, 0], [ 9E+9,9E+9, 9E9, 9E9, 9E9, 9E9]];
CONST robtarget p823:= [[71.0,82.0,0.0], [-1, 0, 0, 0], [-1, 0, 1, 0], [ 9E+9,9E+9, 9E9, 9E9, 9E9, 9E9]];
CONST robtarget p824:= [[71.0,82.0,-10.0], [-1, 0, 0, 0], [-1, 0, 1, 0], [ 9E+9,9E+9, 9E9, 9E9, 9E9, 9E9]];
CONST robtarget p825:= [[110.0,82.0,0.0], [-1, 0, 0, 0], [-1, 0, 1, 0], [ 9E+9,9E+9, 9E9, 9E9, 9E9, 9E9]];
CONST robtarget p826:= [[110.0,82.0,0.0], [-1, 0, 0, 0], [-1, 0, 1, 0], [ 9E+9,9E+9, 9E9, 9E9, 9E9, 9E9]];
CONST robtarget p827:= [[112.0,82.0,0.0], [-1, 0, 0, 0], [-1, 0, 1, 0], [ 9E+9,9E+9, 9E9, 9E9, 9E9, 9E9]];
CONST robtarget p828:= [[112.0,82.0,-10.0], [-1, 0, 0, 0], [-1, 0, 1, 0], [ 9E+9,9E+9, 9E9, 9E9, 9E9, 9E9]];
CONST robtarget p829:= [[117.0,82.0,0.0], [-1, 0, 0, 0], [-1, 0, 1, 0], [ 9E+9,9E+9, 9E9, 9E9, 9E9, 9E9]];
CONST robtarget p830:= [[117.0,82.0,0.0], [-1, 0, 0, 0], [-1, 0, 1, 0], [ 9E+9,9E+9, 9E9, 9E9, 9E9, 9E9]];
CONST robtarget p831:= [[118.0,82.0,0.0], [-1, 0, 0, 0], [-1, 0, 1, 0], [ 9E+9,9E+9, 9E9, 9E9, 9E9, 9E9]];
CONST robtarget p832:= [[118.0,82.0,-10.0], [-1, 0, 0, 0], [-1, 0, 1, 0], [ 9E+9,9E+9, 9E9, 9E9, 9E9, 9E9]];
CONST robtarget p833:= [[135.0,82.0,0.0], [-1, 0, 0, 0], [-1, 0, 1, 0], [ 9E+9,9E+9, 9E9, 9E9, 9E9, 9E9]];
CONST robtarget p834:= [[135.0,82.0,0.0], [-1, 0, 0, 0], [-1, 0, 1, 0], [ 9E+9,9E+9, 9E9, 9E9, 9E9, 9E9]];
CONST robtarget p835:= [[144.0,82.0,0.0], [-1, 0, 0, 0], [-1, 0, 1, 0], [ 9E+9,9E+9, 9E9, 9E9, 9E9, 9E9]];
CONST robtarget p836:= [[144.0,82.0,-10.0], [-1, 0, 0, 0], [-1, 0, 1, 0], [ 9E+9,9E+9, 9E9, 9E9, 9E9, 9E9]];
CONST robtarget p837:= [[160.0,82.0,0.0], [-1, 0, 0, 0], [-1, 0, 1, 0], [ 9E+9,9E+9, 9E9, 9E9, 9E9, 9E9]];
CONST robtarget p838:= [[160.0,82.0,0.0], [-1, 0, 0, 0], [-1, 0, 1, 0], [ 9E+9,9E+9, 9E9, 9E9, 9E9, 9E9]];
CONST robtarget p839:= [[160.0,82.0,0.0], [-1, 0, 0, 0], [-1, 0, 1, 0], [ 9E+9,9E+9, 9E9, 9E9, 9E9, 9E9]];
CONST robtarget p840:= [[160.0,82.0,-10.0], [-1, 0, 0, 0], [-1, 0, 1, 0], [ 9E+9,9E+9, 9E9, 9E9, 9E9, 9E9]];
CONST robtarget p841:= [[168.0,82.0,0.0], [-1, 0, 0, 0], [-1, 0, 1, 0], [ 9E+9,9E+9, 9E9, 9E9, 9E9, 9E9]];
CONST robtarget p842:= [[168.0,82.0,0.0], [-1, 0, 0, 0], [-1, 0, 1, 0], [ 9E+9,9E+9, 9E9, 9E9, 9E9, 9E9]];
CONST robtarget p843:= [[178.0,82.0,0.0], [-1, 0, 0, 0], [-1, 0, 1, 0], [ 9E+9,9E+9, 9E9, 9E9, 9E9, 9E9]];
CONST robtarget p844:= [[178.0,82.0,-10.0], [-1, 0, 0, 0], [-1, 0, 1, 0], [ 9E+9,9E+9, 9E9, 9E9, 9E9, 9E9]];
CONST robtarget p845:= [[176.0,83.0,0.0], [-1, 0, 0, 0], [-1, 0, 1, 0], [ 9E+9,9E+9, 9E9, 9E9, 9E9, 9E9]];
CONST robtarget p846:= [[176.0,83.0,0.0], [-1, 0, 0, 0], [-1, 0, 1, 0], [ 9E+9,9E+9, 9E9, 9E9, 9E9, 9E9]];
CONST robtarget p847:= [[170.0,83.0,0.0], [-1, 0, 0, 0], [-1, 0, 1, 0], [ 9E+9,9E+9, 9E9, 9E9, 9E9, 9E9]];
CONST robtarget p848:= [[170.0,83.0,-10.0], [-1, 0, 0, 0], [-1, 0, 1, 0], [ 9E+9,9E+9, 9E9, 9E9, 9E9, 9E9]];
CONST robtarget p849:= [[144.0,83.0,0.0], [-1, 0, 0, 0], [-1, 0, 1, 0], [ 9E+9,9E+9, 9E9, 9E9, 9E9, 9E9]];
CONST robtarget p850:= [[144.0,83.0,0.0], [-1, 0, 0, 0], [-1, 0, 1, 0], [ 9E+9,9E+9, 9E9, 9E9, 9E9, 9E9]];
CONST robtarget p851:= [[135.0,83.0,0.0], [-1, 0, 0, 0], [-1, 0, 1, 0], [ 9E+9,9E+9, 9E9, 9E9, 9E9, 9E9]];
CONST robtarget p852:= [[135.0,83.0,-10.0], [-1, 0, 0, 0], [-1, 0, 1, 0], [ 9E+9,9E+9, 9E9, 9E9, 9E9, 9E9]];
CONST robtarget p853:= [[118.0,83.0,0.0], [-1, 0, 0, 0], [-1, 0, 1, 0], [ 9E+9,9E+9, 9E9, 9E9, 9E9, 9E9]];
CONST robtarget p854:= [[118.0,83.0,0.0], [-1, 0, 0, 0], [-1, 0, 1, 0], [ 9E+9,9E+9, 9E9, 9E9, 9E9, 9E9]];
CONST robtarget p855:= [[117.0,83.0,0.0], [-1, 0, 0, 0], [-1, 0, 1, 0], [ 9E+9,9E+9, 9E9, 9E9, 9E9, 9E9]];
CONST robtarget p856:= [[117.0,83.0,-10.0], [-1, 0, 0, 0], [-1, 0, 1, 0], [ 9E+9,9E+9, 9E9, 9E9, 9E9, 9E9]];
CONST robtarget p857:= [[112.0,83.0,0.0], [-1, 0, 0, 0], [-1, 0, 1, 0], [ 9E+9,9E+9, 9E9, 9E9, 9E9, 9E9]];
CONST robtarget p858:= [[112.0,83.0,0.0], [-1, 0, 0, 0], [-1, 0, 1, 0], [ 9E+9,9E+9, 9E9, 9E9, 9E9, 9E9]];
CONST robtarget p859:= [[111.0,83.0,0.0], [-1, 0, 0, 0], [-1, 0, 1, 0], [ 9E+9,9E+9, 9E9, 9E9, 9E9, 9E9]];
CONST robtarget p860:= [[111.0,83.0,-10.0], [-1, 0, 0, 0], [-1, 0, 1, 0], [ 9E+9,9E+9, 9E9, 9E9, 9E9, 9E9]];
CONST robtarget p861:= [[92.0,83.0,0.0], [-1, 0, 0, 0], [-1, 0, 1, 0], [ 9E+9,9E+9, 9E9, 9E9, 9E9, 9E9]];
CONST robtarget p862:= [[92.0,83.0,0.0], [-1, 0, 0, 0], [-1, 0, 1, 0], [ 9E+9,9E+9, 9E9, 9E9, 9E9, 9E9]];
CONST robtarget p863:= [[91.0,83.0,0.0], [-1, 0, 0, 0], [-1, 0, 1, 0], [ 9E+9,9E+9, 9E9, 9E9, 9E9, 9E9]];
CONST robtarget p864:= [[91.0,83.0,-10.0], [-1, 0, 0, 0], [-1, 0, 1, 0], [ 9E+9,9E+9, 9E9, 9E9, 9E9, 9E9]];
CONST robtarget p865:= [[70.0,83.0,0.0], [-1, 0, 0, 0], [-1, 0, 1, 0], [ 9E+9,9E+9, 9E9, 9E9, 9E9, 9E9]];
CONST robtarget p866:= [[70.0,83.0,0.0], [-1, 0, 0, 0], [-1, 0, 1, 0], [ 9E+9,9E+9, 9E9, 9E9, 9E9, 9E9]];
CONST robtarget p867:= [[61.0,83.0,0.0], [-1, 0, 0, 0], [-1, 0, 1, 0], [ 9E+9,9E+9, 9E9, 9E9, 9E9, 9E9]];
CONST robtarget p868:= [[61.0,83.0,-10.0], [-1, 0, 0, 0], [-1, 0, 1, 0], [ 9E+9,9E+9, 9E9, 9E9, 9E9, 9E9]];
CONST robtarget p869:= [[57.0,84.0,0.0], [-1, 0, 0, 0], [-1, 0, 1, 0], [ 9E+9,9E+9, 9E9, 9E9, 9E9, 9E9]];
CONST robtarget p870:= [[57.0,84.0,0.0], [-1, 0, 0, 0], [-1, 0, 1, 0], [ 9E+9,9E+9, 9E9, 9E9, 9E9, 9E9]];
CONST robtarget p871:= [[70.0,84.0,0.0], [-1, 0, 0, 0], [-1, 0, 1, 0], [ 9E+9,9E+9, 9E9, 9E9, 9E9, 9E9]];
CONST robtarget p872:= [[70.0,84.0,-10.0], [-1, 0, 0, 0], [-1, 0, 1, 0], [ 9E+9,9E+9, 9E9, 9E9, 9E9, 9E9]];
CONST robtarget p873:= [[92.0,84.0,0.0], [-1, 0, 0, 0], [-1, 0, 1, 0], [ 9E+9,9E+9, 9E9, 9E9, 9E9, 9E9]];
CONST robtarget p874:= [[92.0,84.0,0.0], [-1, 0, 0, 0], [-1, 0, 1, 0], [ 9E+9,9E+9, 9E9, 9E9, 9E9, 9E9]];
CONST robtarget p875:= [[93.0,84.0,0.0], [-1, 0, 0, 0], [-1, 0, 1, 0], [ 9E+9,9E+9, 9E9, 9E9, 9E9, 9E9]];
CONST robtarget p876:= [[93.0,84.0,-10.0], [-1, 0, 0, 0], [-1, 0, 1, 0], [ 9E+9,9E+9, 9E9, 9E9, 9E9, 9E9]];
CONST robtarget p877:= [[111.0,84.0,0.0], [-1, 0, 0, 0], [-1, 0, 1, 0], [ 9E+9,9E+9, 9E9, 9E9, 9E9, 9E9]];
CONST robtarget p878:= [[111.0,84.0,0.0], [-1, 0, 0, 0], [-1, 0, 1, 0], [ 9E+9,9E+9, 9E9, 9E9, 9E9, 9E9]];
CONST robtarget p879:= [[112.0,84.0,0.0], [-1, 0, 0, 0], [-1, 0, 1, 0], [ 9E+9,9E+9, 9E9, 9E9, 9E9, 9E9]];
CONST robtarget p880:= [[112.0,84.0,-10.0], [-1, 0, 0, 0], [-1, 0, 1, 0], [ 9E+9,9E+9, 9E9, 9E9, 9E9, 9E9]];
CONST robtarget p881:= [[116.0,84.0,0.0], [-1, 0, 0, 0], [-1, 0, 1, 0], [ 9E+9,9E+9, 9E9, 9E9, 9E9, 9E9]];
CONST robtarget p882:= [[116.0,84.0,0.0], [-1, 0, 0, 0], [-1, 0, 1, 0], [ 9E+9,9E+9, 9E9, 9E9, 9E9, 9E9]];
CONST robtarget p883:= [[118.0,84.0,0.0], [-1, 0, 0, 0], [-1, 0, 1, 0], [ 9E+9,9E+9, 9E9, 9E9, 9E9, 9E9]];
CONST robtarget p884:= [[118.0,84.0,-10.0], [-1, 0, 0, 0], [-1, 0, 1, 0], [ 9E+9,9E+9, 9E9, 9E9, 9E9, 9E9]];
CONST robtarget p885:= [[136.0,84.0,0.0], [-1, 0, 0, 0], [-1, 0, 1, 0], [ 9E+9,9E+9, 9E9, 9E9, 9E9, 9E9]];
CONST robtarget p886:= [[136.0,84.0,0.0], [-1, 0, 0, 0], [-1, 0, 1, 0], [ 9E+9,9E+9, 9E9, 9E9, 9E9, 9E9]];
CONST robtarget p887:= [[149.0,84.0,0.0], [-1, 0, 0, 0], [-1, 0, 1, 0], [ 9E+9,9E+9, 9E9, 9E9, 9E9, 9E9]];
CONST robtarget p888:= [[149.0,84.0,-10.0], [-1, 0, 0, 0], [-1, 0, 1, 0], [ 9E+9,9E+9, 9E9, 9E9, 9E9, 9E9]];
CONST robtarget p889:= [[152.0,85.0,0.0], [-1, 0, 0, 0], [-1, 0, 1, 0], [ 9E+9,9E+9, 9E9, 9E9, 9E9, 9E9]];
CONST robtarget p890:= [[152.0,85.0,0.0], [-1, 0, 0, 0], [-1, 0, 1, 0], [ 9E+9,9E+9, 9E9, 9E9, 9E9, 9E9]];
CONST robtarget p891:= [[136.0,85.0,0.0], [-1, 0, 0, 0], [-1, 0, 1, 0], [ 9E+9,9E+9, 9E9, 9E9, 9E9, 9E9]];
CONST robtarget p892:= [[136.0,85.0,-10.0], [-1, 0, 0, 0], [-1, 0, 1, 0], [ 9E+9,9E+9, 9E9, 9E9, 9E9, 9E9]];
CONST robtarget p893:= [[117.0,85.0,0.0], [-1, 0, 0, 0], [-1, 0, 1, 0], [ 9E+9,9E+9, 9E9, 9E9, 9E9, 9E9]];
CONST robtarget p894:= [[117.0,85.0,0.0], [-1, 0, 0, 0], [-1, 0, 1, 0], [ 9E+9,9E+9, 9E9, 9E9, 9E9, 9E9]];
CONST robtarget p895:= [[116.0,85.0,0.0], [-1, 0, 0, 0], [-1, 0, 1, 0], [ 9E+9,9E+9, 9E9, 9E9, 9E9, 9E9]];
CONST robtarget p896:= [[116.0,85.0,-10.0], [-1, 0, 0, 0], [-1, 0, 1, 0], [ 9E+9,9E+9, 9E9, 9E9, 9E9, 9E9]];
CONST robtarget p897:= [[113.0,85.0,0.0], [-1, 0, 0, 0], [-1, 0, 1, 0], [ 9E+9,9E+9, 9E9, 9E9, 9E9, 9E9]];
CONST robtarget p898:= [[113.0,85.0,0.0], [-1, 0, 0, 0], [-1, 0, 1, 0], [ 9E+9,9E+9, 9E9, 9E9, 9E9, 9E9]];
CONST robtarget p899:= [[112.0,85.0,0.0], [-1, 0, 0, 0], [-1, 0, 1, 0], [ 9E+9,9E+9, 9E9, 9E9, 9E9, 9E9]];
CONST robtarget p900:= [[112.0,85.0,-10.0], [-1, 0, 0, 0], [-1, 0, 1, 0], [ 9E+9,9E+9, 9E9, 9E9, 9E9, 9E9]];
CONST robtarget p901:= [[94.0,85.0,0.0], [-1, 0, 0, 0], [-1, 0, 1, 0], [ 9E+9,9E+9, 9E9, 9E9, 9E9, 9E9]];
CONST robtarget p902:= [[94.0,85.0,0.0], [-1, 0, 0, 0], [-1, 0, 1, 0], [ 9E+9,9E+9, 9E9, 9E9, 9E9, 9E9]];
CONST robtarget p903:= [[93.0,85.0,0.0], [-1, 0, 0, 0], [-1, 0, 1, 0], [ 9E+9,9E+9, 9E9, 9E9, 9E9, 9E9]];
CONST robtarget p904:= [[93.0,85.0,-10.0], [-1, 0, 0, 0], [-1, 0, 1, 0], [ 9E+9,9E+9, 9E9, 9E9, 9E9, 9E9]];
CONST robtarget p905:= [[70.0,85.0,0.0], [-1, 0, 0, 0], [-1, 0, 1, 0], [ 9E+9,9E+9, 9E9, 9E9, 9E9, 9E9]];
CONST robtarget p906:= [[70.0,85.0,0.0], [-1, 0, 0, 0], [-1, 0, 1, 0], [ 9E+9,9E+9, 9E9, 9E9, 9E9, 9E9]];
CONST robtarget p907:= [[54.0,85.0,0.0], [-1, 0, 0, 0], [-1, 0, 1, 0], [ 9E+9,9E+9, 9E9, 9E9, 9E9, 9E9]];
CONST robtarget p908:= [[54.0,85.0,-10.0], [-1, 0, 0, 0], [-1, 0, 1, 0], [ 9E+9,9E+9, 9E9, 9E9, 9E9, 9E9]];
CONST robtarget p909:= [[52.0,86.0,0.0], [-1, 0, 0, 0], [-1, 0, 1, 0], [ 9E+9,9E+9, 9E9, 9E9, 9E9, 9E9]];
CONST robtarget p910:= [[52.0,86.0,0.0], [-1, 0, 0, 0], [-1, 0, 1, 0], [ 9E+9,9E+9, 9E9, 9E9, 9E9, 9E9]];
CONST robtarget p911:= [[69.0,86.0,0.0], [-1, 0, 0, 0], [-1, 0, 1, 0], [ 9E+9,9E+9, 9E9, 9E9, 9E9, 9E9]];
CONST robtarget p912:= [[69.0,86.0,-10.0], [-1, 0, 0, 0], [-1, 0, 1, 0], [ 9E+9,9E+9, 9E9, 9E9, 9E9, 9E9]];
CONST robtarget p913:= [[94.0,86.0,0.0], [-1, 0, 0, 0], [-1, 0, 1, 0], [ 9E+9,9E+9, 9E9, 9E9, 9E9, 9E9]];
CONST robtarget p914:= [[94.0,86.0,0.0], [-1, 0, 0, 0], [-1, 0, 1, 0], [ 9E+9,9E+9, 9E9, 9E9, 9E9, 9E9]];
CONST robtarget p915:= [[95.0,86.0,0.0], [-1, 0, 0, 0], [-1, 0, 1, 0], [ 9E+9,9E+9, 9E9, 9E9, 9E9, 9E9]];
CONST robtarget p916:= [[95.0,86.0,-10.0], [-1, 0, 0, 0], [-1, 0, 1, 0], [ 9E+9,9E+9, 9E9, 9E9, 9E9, 9E9]];
CONST robtarget p917:= [[112.0,86.0,0.0], [-1, 0, 0, 0], [-1, 0, 1, 0], [ 9E+9,9E+9, 9E9, 9E9, 9E9, 9E9]];
CONST robtarget p918:= [[112.0,86.0,0.0], [-1, 0, 0, 0], [-1, 0, 1, 0], [ 9E+9,9E+9, 9E9, 9E9, 9E9, 9E9]];
CONST robtarget p919:= [[113.0,86.0,0.0], [-1, 0, 0, 0], [-1, 0, 1, 0], [ 9E+9,9E+9, 9E9, 9E9, 9E9, 9E9]];
CONST robtarget p920:= [[113.0,86.0,-10.0], [-1, 0, 0, 0], [-1, 0, 1, 0], [ 9E+9,9E+9, 9E9, 9E9, 9E9, 9E9]];
CONST robtarget p921:= [[115.0,86.0,0.0], [-1, 0, 0, 0], [-1, 0, 1, 0], [ 9E+9,9E+9, 9E9, 9E9, 9E9, 9E9]];
CONST robtarget p922:= [[115.0,86.0,0.0], [-1, 0, 0, 0], [-1, 0, 1, 0], [ 9E+9,9E+9, 9E9, 9E9, 9E9, 9E9]];
CONST robtarget p923:= [[117.0,86.0,0.0], [-1, 0, 0, 0], [-1, 0, 1, 0], [ 9E+9,9E+9, 9E9, 9E9, 9E9, 9E9]];
